; generated by PrusaSlicer 2.4.2+win64 on 2022-05-11 at 08:01:10 UTC

; 

; external perimeters extrusion width = 0.45mm
; perimeters extrusion width = 0.45mm
; infill extrusion width = 0.45mm
; solid infill extrusion width = 0.45mm
; top infill extrusion width = 0.45mm
; support material extrusion width = 0.35mm
; first layer extrusion width = 0.42mm

M73 P0 R263
M107
;TYPE:Custom
M862.3 P "MK2.5S" ; printer model check
M862.1 P0.4 ; nozzle diameter check
M115 U3.9.1 ; tell printer latest fw version
G90 ; use absolute coordinates
M83  ; extruder relative mode
M104 S230 ; set extruder temp
M140 S85 ; set bed temp
M190 S85 ; wait for bed temp
M109 S230 ; wait for extruder temp
G28 W ; home all without mesh bed level
G80 ; mesh bed leveling
G1 Y-3.0 F1000.0 ; go outside print area
G92 E0.0
G1 X60.0 E9.0 F1000.0 ; intro line
G1 X100.0 E12.5 F1000.0 ; intro line
G92 E0.0
G21 ; set units to millimeters
G90 ; use absolute coordinates
M83 ; use relative distances for extrusion
M900 K0.08 ; Filament gcode LA 1.5
M900 K45 ; Filament gcode LA 1.0
M107
;LAYER_CHANGE
;Z:0.2
;HEIGHT:0.2
;BEFORE_LAYER_CHANGE
G92 E0.0
;0.2


G1 E-1.4 F2100
G1 Z.2 F10800
;AFTER_LAYER_CHANGE
;0.2
G1 Z.4
G1 X74.239 Y43.968
G1 Z.2
G1 E1.4 F2100
M204 S1000
;TYPE:Skirt/Brim
;WIDTH:0.42
G1 F1200
G1 X74.883 Y42.88 E.03964
G1 X76.385 Y41.121 E.07252
G1 X77.88 Y39.883 E.06087
G1 X79.218 Y39.063 E.0492
G1 X81.355 Y38.178 E.07252
G1 X82.881 Y37.812 E.0492
G1 X84.813 Y37.63 E.06087
G1 X165.187 Y37.63 E2.52004
G1 X166.751 Y37.753 E.0492
G1 X168.645 Y38.178 E.06087
G1 X170.45 Y38.894 E.06087
G1 X172.12 Y39.883 E.06087
G1 X173.879 Y41.385 E.07252
G1 X175.117 Y42.88 E.06087
G1 X175.937 Y44.218 E.0492
G1 X176.707 Y46 E.06087
G1 X177.188 Y47.881 E.06087
G1 X177.37 Y49.814 E.06087
G1 X177.377 Y160 E3.45482
G1 X177.247 Y161.751 E.05505
G1 X176.822 Y163.645 E.06087
G1 X176.106 Y165.45 E.06087
G1 X175.117 Y167.12 E.06087
G1 X173.615 Y168.879 E.07252
G1 X172.422 Y169.898 E.0492
G1 X170.782 Y170.937 E.06087
G1 X168.645 Y171.822 E.07252
G1 X166.751 Y172.247 E.06087
G1 X165 Y172.377 E.05505
G1 X85 Y172.377 E2.50834
G1 X83.249 Y172.247 E.05505
G1 X81.355 Y171.822 E.06087
G1 X79.55 Y171.106 E.06087
G1 X77.88 Y170.117 E.06087
G1 X76.121 Y168.615 E.07252
G1 X75.102 Y167.422 E.0492
G1 X74.063 Y165.782 E.06087
G1 X73.178 Y163.645 E.07252
G1 X72.753 Y161.751 E.06087
G1 X72.623 Y160 E.05505
G1 X72.623 Y50 E3.44897
G1 X72.753 Y48.249 E.05505
G1 X73.178 Y46.355 E.06087
G1 X73.894 Y44.55 E.06087
G1 X74.208 Y44.02 E.01934
; printing object base_plate_top.STL id:0 copy 0
;WIPE_START
G1 F8640
G1 X74.883 Y42.88 E-.30578
G1 X76.385 Y41.121 E-.53405
G1 X77.88 Y39.883 E-.44824
G1 X78.035 Y39.788 E-.04192
;WIPE_END
G1 E-.07 F2100
G1 Z.4 F10800
G1 X122.192 Y74.384
G1 Z.2
G1 E1.4 F2100
;TYPE:Perimeter
G1 F1200
G1 X122.235 Y74.298 E.00302
G1 X122.563 Y73.855 E.01727
G1 X122.96 Y73.474 E.01727
G1 X123.417 Y73.165 E.01727
G1 X123.918 Y72.939 E.01727
G1 X124.451 Y72.8 E.01727
G1 X124.965 Y72.756 E.01616
G1 X125.54 Y72.798 E.01809
G1 X126.082 Y72.939 E.01754
G1 X126.583 Y73.165 E.01727
G1 X127.04 Y73.474 E.01727
G1 X127.437 Y73.855 E.01727
G1 X127.765 Y74.298 E.01727
G1 X128.013 Y74.789 E.01727
G1 X128.164 Y75.282 E.01616
G1 X128.244 Y75.853 E.01809
G1 X128.221 Y76.412 E.01754
G1 X128.104 Y76.951 E.01727
G1 X127.899 Y77.462 E.01727
G1 X127.61 Y77.931 E.01727
G1 X127.247 Y78.344 E.01727
G1 X126.818 Y78.69 E.01727
G1 X126.337 Y78.959 E.01727
G1 X125.818 Y79.142 E.01727
G1 X125.275 Y79.235 E.01727
G1 X124.725 Y79.235 E.01727
G1 X124.182 Y79.142 E.01727
G1 X123.663 Y78.959 E.01727
G1 X123.182 Y78.69 E.01727
G1 X122.753 Y78.344 E.01727
G1 X122.39 Y77.931 E.01727
G1 X122.119 Y77.492 E.01616
G1 X121.897 Y76.959 E.01809
G1 X121.779 Y76.412 E.01754
G1 X121.756 Y75.862 E.01727
G1 X121.826 Y75.316 E.01727
G1 X121.987 Y74.789 E.01727
G1 X122.165 Y74.437 E.01237
G1 X122.529 Y74.553 F10800
G1 F1200
G1 X122.847 Y74.105 E.01724
G1 X123.198 Y73.768 E.01525
G1 X123.601 Y73.496 E.01525
G1 X124.044 Y73.295 E.01525
G1 X124.515 Y73.173 E.01525
G1 X124.967 Y73.134 E.01422
G1 X125.479 Y73.171 E.01608
G1 X125.956 Y73.295 E.01545
G1 X126.399 Y73.496 E.01525
G1 X126.802 Y73.768 E.01525
G1 X127.153 Y74.105 E.01525
G1 X127.442 Y74.496 E.01525
G1 X127.662 Y74.931 E.01525
G1 X127.794 Y75.364 E.01422
G1 X127.866 Y75.872 E.01608
G1 X127.845 Y76.364 E.01545
G1 X127.743 Y76.84 E.01525
G1 X127.561 Y77.291 E.01525
G1 X127.306 Y77.706 E.01525
G1 X126.985 Y78.071 E.01525
G1 X126.606 Y78.376 E.01525
G1 X126.181 Y78.614 E.01525
G1 X125.723 Y78.776 E.01525
G1 X125.243 Y78.858 E.01525
G1 X124.757 Y78.858 E.01525
G1 X124.277 Y78.776 E.01525
G1 X123.819 Y78.614 E.01525
G1 X123.394 Y78.376 E.01525
G1 X123.015 Y78.071 E.01525
G1 X122.694 Y77.706 E.01525
G1 X122.456 Y77.319 E.01422
G1 X122.259 Y76.846 E.01608
G1 X122.155 Y76.364 E.01545
G1 X122.134 Y75.878 E.01525
G1 X122.196 Y75.396 E.01525
G1 X122.338 Y74.931 E.01525
G1 X122.502 Y74.607 E.01136
G1 X122.865 Y74.723 F10800
G1 F1200
G1 X123.131 Y74.355 E.01423
G1 X123.436 Y74.063 E.01324
G1 X123.786 Y73.826 E.01324
G1 X124.171 Y73.652 E.01324
G1 X124.579 Y73.546 E.01324
G1 X124.97 Y73.513 E.01229
G1 X125.417 Y73.545 E.01407
G1 X125.829 Y73.652 E.01336
G1 X126.214 Y73.826 E.01324
G1 X126.564 Y74.063 E.01324
G1 X126.869 Y74.355 E.01324
G1 X127.12 Y74.695 E.01324
G1 X127.31 Y75.072 E.01324
G1 X127.425 Y75.446 E.01229
G1 X127.488 Y75.891 E.01407
G1 X127.47 Y76.316 E.01336
G1 X127.381 Y76.729 E.01324
G1 X127.223 Y77.121 E.01324
G1 X127.002 Y77.481 E.01324
G1 X126.723 Y77.798 E.01324
G1 X126.394 Y78.063 E.01324
G1 X126.026 Y78.269 E.01324
G1 X125.627 Y78.41 E.01324
G1 X125.211 Y78.481 E.01324
G1 X124.789 Y78.481 E.01324
G1 X124.373 Y78.41 E.01324
G1 X123.974 Y78.269 E.01324
G1 X123.606 Y78.063 E.01324
G1 X123.277 Y77.798 E.01324
G1 X122.998 Y77.481 E.01324
G1 X122.793 Y77.147 E.01229
G1 X122.62 Y76.733 E.01407
G1 X122.53 Y76.316 E.01336
G1 X122.512 Y75.894 E.01324
G1 X122.566 Y75.475 E.01324
G1 X122.69 Y75.072 E.01324
G1 X122.838 Y74.777 E.01035
G1 X123.202 Y74.893 F10800
;TYPE:External perimeter
G1 F1200
G1 X123.415 Y74.605 E.01123
G1 X123.674 Y74.357 E.01123
G1 X123.97 Y74.157 E.01123
G1 X124.297 Y74.009 E.01123
G1 X124.643 Y73.919 E.01123
G1 X124.972 Y73.891 E.01035
G1 X125.356 Y73.919 E.01205
G1 X125.703 Y74.009 E.01127
G1 X126.03 Y74.157 E.01123
G1 X126.326 Y74.357 E.01123
G1 X126.585 Y74.605 E.01123
G1 X126.798 Y74.893 E.01123
G1 X126.959 Y75.213 E.01123
G1 X127.056 Y75.528 E.01035
G1 X127.11 Y75.909 E.01205
G1 X127.094 Y76.268 E.01127
G1 X127.019 Y76.618 E.01123
G1 X126.885 Y76.951 E.01123
G1 X126.698 Y77.256 E.01123
G1 X126.461 Y77.524 E.01123
G1 X126.182 Y77.749 E.01123
G1 X125.87 Y77.924 E.01123
G1 X125.532 Y78.043 E.01123
G1 X125.179 Y78.104 E.01123
G1 X124.821 Y78.104 E.01123
G1 X124.468 Y78.043 E.01123
G1 X124.13 Y77.924 E.01123
G1 X123.818 Y77.749 E.01123
G1 X123.539 Y77.524 E.01123
G1 X123.302 Y77.256 E.01123
G1 X123.129 Y76.974 E.01035
G1 X122.981 Y76.62 E.01205
G1 X122.906 Y76.268 E.01127
G1 X122.89 Y75.91 E.01123
G1 X122.936 Y75.555 E.01123
G1 X123.041 Y75.213 E.01123
G1 X123.175 Y74.947 E.00935
G1 X123.032 Y74.578 F10800
;WIPE_START
G1 F8640
G1 X123.415 Y74.605 E-.09638
G1 X123.674 Y74.357 E-.0827
G1 X123.97 Y74.157 E-.08269
G1 X124.297 Y74.009 E-.08269
G1 X124.643 Y73.919 E-.0827
G1 X124.972 Y73.891 E-.07623
G1 X125.356 Y73.919 E-.08876
G1 X125.703 Y74.009 E-.08301
G1 X126.03 Y74.157 E-.08269
G1 X126.326 Y74.357 E-.08269
G1 X126.585 Y74.605 E-.08269
G1 X126.798 Y74.893 E-.08269
G1 X126.959 Y75.213 E-.0827
G1 X127.056 Y75.528 E-.07623
G1 X127.11 Y75.909 E-.08876
G1 X127.096 Y76.24 E-.07639
;WIPE_END
G1 E-.07 F2100
G1 Z.4 F10800
G1 X106.381 Y67.802
G1 Z.2
G1 E1.4 F2100
;TYPE:Perimeter
G1 F1200
G1 X106.061 Y68.364 E.02029
G1 X105.702 Y68.772 E.01702
G1 X105.287 Y69.107 E.01673
G1 X104.821 Y69.367 E.01673
G1 X104.318 Y69.545 E.01673
G1 X103.792 Y69.635 E.01673
G1 X103.258 Y69.635 E.01674
G1 X102.732 Y69.545 E.01673
G1 X102.229 Y69.367 E.01673
G1 X101.763 Y69.107 E.01673
G1 X101.348 Y68.772 E.01674
G1 X100.995 Y68.371 E.01674
G1 X100.715 Y67.917 E.01673
G1 X100.516 Y67.421 E.01673
G1 X100.404 Y66.9 E.01674
G1 X100.381 Y66.366 E.01673
G1 X100.449 Y65.837 E.01673
G1 X100.605 Y65.327 E.01674
G1 X100.845 Y64.85 E.01674
G1 X101.163 Y64.421 E.01673
G1 X101.548 Y64.052 E.01673
G1 X101.99 Y63.753 E.01674
G1 X102.477 Y63.533 E.01674
G1 X102.993 Y63.398 E.01673
G1 X103.49 Y63.356 E.01564
G1 X104.048 Y63.396 E.01754
G1 X104.573 Y63.533 E.01702
G1 X105.06 Y63.753 E.01674
G1 X105.502 Y64.052 E.01674
G1 X105.887 Y64.421 E.01673
G1 X106.184 Y64.822 E.01564
G1 X106.442 Y65.318 E.01754
G1 X106.601 Y65.837 E.01702
G1 X106.669 Y66.366 E.01673
G1 X106.646 Y66.9 E.01674
G1 X106.534 Y67.421 E.01673
G1 X106.403 Y67.746 E.01097
G1 X106.031 Y67.661 F10800
G1 F1200
G1 X105.755 Y68.141 E.01736
G1 X105.441 Y68.499 E.01493
G1 X105.075 Y68.794 E.01472
G1 X104.665 Y69.023 E.01472
G1 X104.223 Y69.179 E.01472
G1 X103.76 Y69.258 E.01472
G1 X103.29 Y69.258 E.01472
G1 X102.827 Y69.179 E.01472
G1 X102.385 Y69.023 E.01472
G1 X101.975 Y68.794 E.01472
G1 X101.609 Y68.499 E.01472
G1 X101.299 Y68.146 E.01472
G1 X101.053 Y67.746 E.01472
G1 X100.878 Y67.311 E.01472
G1 X100.779 Y66.852 E.01472
G1 X100.759 Y66.383 E.01472
G1 X100.819 Y65.917 E.01472
G1 X100.956 Y65.468 E.01472
G1 X101.168 Y65.049 E.01472
G1 X101.447 Y64.671 E.01472
G1 X101.786 Y64.346 E.01472
G1 X102.175 Y64.083 E.01472
G1 X102.603 Y63.89 E.01472
G1 X103.057 Y63.771 E.01472
G1 X103.493 Y63.734 E.0137
G1 X103.987 Y63.77 E.01553
G1 X104.447 Y63.89 E.01492
G1 X104.875 Y64.083 E.01472
G1 X105.264 Y64.346 E.01472
G1 X105.603 Y64.671 E.01472
G1 X105.863 Y65.022 E.0137
G1 X106.092 Y65.462 E.01553
G1 X106.231 Y65.917 E.01493
G1 X106.291 Y66.383 E.01472
G1 X106.271 Y66.852 E.01472
G1 X106.172 Y67.311 E.01472
G1 X106.053 Y67.606 E.00997
G1 X105.681 Y67.521 F10800
G1 F1200
G1 X105.449 Y67.918 E.01443
G1 X105.179 Y68.225 E.01283
G1 X104.863 Y68.48 E.01271
G1 X104.509 Y68.678 E.01271
G1 X104.127 Y68.813 E.01271
G1 X103.728 Y68.881 E.01271
G1 X103.322 Y68.881 E.01271
G1 X102.923 Y68.813 E.01271
G1 X102.541 Y68.678 E.01271
G1 X102.187 Y68.48 E.01271
G1 X101.871 Y68.225 E.01271
G1 X101.604 Y67.921 E.01271
G1 X101.391 Y67.576 E.01271
G1 X101.24 Y67.2 E.01271
G1 X101.154 Y66.804 E.01271
G1 X101.137 Y66.399 E.01271
G1 X101.189 Y65.997 E.01271
G1 X101.307 Y65.609 E.01271
G1 X101.49 Y65.247 E.01271
G1 X101.731 Y64.921 E.01271
G1 X102.024 Y64.641 E.01271
G1 X102.359 Y64.414 E.01271
G1 X102.729 Y64.247 E.01271
G1 X103.121 Y64.144 E.01271
G1 X103.495 Y64.113 E.01177
G1 X103.925 Y64.143 E.01352
G1 X104.321 Y64.247 E.01283
G1 X104.691 Y64.414 E.01271
G1 X105.026 Y64.641 E.01271
G1 X105.319 Y64.921 E.01271
G1 X105.542 Y65.223 E.01177
G1 X105.741 Y65.605 E.01352
G1 X105.861 Y65.997 E.01283
G1 X105.913 Y66.399 E.01271
G1 X105.896 Y66.804 E.01271
G1 X105.81 Y67.2 E.01271
G1 X105.704 Y67.465 E.00896
G1 X105.331 Y67.38 F10800
;TYPE:External perimeter
G1 F1200
G1 X105.143 Y67.695 E.0115
G1 X104.917 Y67.952 E.01074
G1 X104.651 Y68.167 E.0107
G1 X104.354 Y68.333 E.0107
G1 X104.032 Y68.447 E.0107
G1 X103.696 Y68.504 E.0107
G1 X103.354 Y68.504 E.0107
G1 X103.018 Y68.447 E.0107
G1 X102.696 Y68.333 E.0107
G1 X102.399 Y68.167 E.0107
G1 X102.133 Y67.952 E.0107
G1 X101.908 Y67.696 E.0107
G1 X101.729 Y67.406 E.0107
G1 X101.602 Y67.089 E.0107
G1 X101.53 Y66.755 E.0107
G1 X101.515 Y66.415 E.0107
G1 X101.559 Y66.076 E.0107
G1 X101.659 Y65.75 E.0107
G1 X101.812 Y65.445 E.0107
G1 X102.015 Y65.171 E.0107
G1 X102.261 Y64.935 E.0107
G1 X102.544 Y64.744 E.0107
G1 X102.855 Y64.603 E.0107
G1 X103.185 Y64.517 E.0107
G1 X103.498 Y64.491 E.00984
G1 X103.864 Y64.517 E.0115
G1 X104.195 Y64.603 E.01074
G1 X104.506 Y64.744 E.0107
G1 X104.789 Y64.935 E.0107
G1 X105.035 Y65.171 E.0107
G1 X105.222 Y65.423 E.00984
G1 X105.391 Y65.749 E.0115
G1 X105.491 Y66.076 E.01074
G1 X105.535 Y66.415 E.0107
G1 X105.52 Y66.756 E.0107
G1 X105.448 Y67.089 E.0107
G1 X105.354 Y67.324 E.00795
G1 X105.536 Y67.685 F10800
;WIPE_START
G1 F8640
G1 X105.143 Y67.695 E-.09842
G1 X104.917 Y67.952 E-.0791
G1 X104.651 Y68.167 E-.07878
G1 X104.354 Y68.333 E-.07878
G1 X104.032 Y68.447 E-.07878
G1 X103.696 Y68.504 E-.07878
G1 X103.354 Y68.504 E-.07878
G1 X103.018 Y68.447 E-.07878
G1 X102.696 Y68.333 E-.07878
G1 X102.399 Y68.167 E-.07878
G1 X102.133 Y67.952 E-.07878
G1 X101.908 Y67.696 E-.07878
G1 X101.729 Y67.406 E-.07878
G1 X101.602 Y67.089 E-.07878
G1 X101.53 Y66.755 E-.07878
G1 X101.515 Y66.415 E-.07878
G1 X101.543 Y66.202 E-.04959
;WIPE_END
G1 E-.07 F2100
G1 Z.4 F10800
G1 X103.696 Y54.635
G1 Z.2
G1 E1.4 F2100
;TYPE:Perimeter
G1 F1200
G1 X103.258 Y54.635 E.01372
G1 X102.732 Y54.545 E.01673
G1 X102.229 Y54.367 E.01673
G1 X101.763 Y54.107 E.01673
G1 X101.348 Y53.772 E.01674
G1 X100.995 Y53.371 E.01674
G1 X100.715 Y52.917 E.01673
G1 X100.516 Y52.421 E.01673
G1 X100.404 Y51.9 E.01674
G1 X100.381 Y51.366 E.01673
G1 X100.449 Y50.837 E.01673
G1 X100.605 Y50.327 E.01674
G1 X100.845 Y49.85 E.01674
G1 X101.163 Y49.421 E.01673
G1 X101.548 Y49.052 E.01673
G1 X101.99 Y48.753 E.01674
G1 X102.477 Y48.533 E.01674
G1 X102.993 Y48.398 E.01673
G1 X103.49 Y48.356 E.01564
G1 X104.048 Y48.396 E.01754
G1 X104.573 Y48.533 E.01702
G1 X105.06 Y48.753 E.01674
G1 X105.502 Y49.052 E.01674
G1 X105.887 Y49.421 E.01673
G1 X106.184 Y49.822 E.01564
G1 X106.442 Y50.318 E.01754
G1 X106.601 Y50.837 E.01702
G1 X106.669 Y51.366 E.01673
G1 X106.646 Y51.9 E.01674
G1 X106.534 Y52.421 E.01673
G1 X106.348 Y52.884 E.01564
G1 X106.061 Y53.364 E.01754
G1 X105.702 Y53.772 E.01702
G1 X105.287 Y54.107 E.01673
G1 X104.821 Y54.367 E.01673
G1 X104.318 Y54.545 E.01673
G1 X103.756 Y54.635 E.01786
G1 X103.696 Y54.258 F10800
G1 F1200
G1 X103.29 Y54.258 E.01271
G1 X102.827 Y54.179 E.01472
G1 X102.385 Y54.023 E.01472
G1 X101.975 Y53.794 E.01472
G1 X101.609 Y53.499 E.01472
G1 X101.299 Y53.146 E.01472
G1 X101.053 Y52.746 E.01472
G1 X100.878 Y52.311 E.01472
G1 X100.779 Y51.852 E.01472
G1 X100.759 Y51.383 E.01472
G1 X100.819 Y50.917 E.01472
G1 X100.956 Y50.468 E.01472
G1 X101.168 Y50.049 E.01472
G1 X101.447 Y49.671 E.01472
G1 X101.786 Y49.346 E.01472
G1 X102.175 Y49.083 E.01472
G1 X102.603 Y48.89 E.01472
G1 X103.057 Y48.771 E.01472
G1 X103.493 Y48.734 E.0137
G1 X103.987 Y48.77 E.01553
G1 X104.447 Y48.89 E.01492
G1 X104.875 Y49.083 E.01472
G1 X105.264 Y49.346 E.01472
G1 X105.603 Y49.671 E.01472
G1 X105.863 Y50.022 E.0137
G1 X106.092 Y50.462 E.01553
G1 X106.231 Y50.917 E.01493
G1 X106.291 Y51.383 E.01472
G1 X106.271 Y51.852 E.01472
G1 X106.172 Y52.311 E.01472
G1 X106.009 Y52.716 E.0137
G1 X105.755 Y53.141 E.01553
G1 X105.441 Y53.499 E.01493
G1 X105.075 Y53.794 E.01472
G1 X104.665 Y54.023 E.01472
G1 X104.223 Y54.179 E.01472
G1 X103.756 Y54.258 E.01485
G1 X103.696 Y53.881 F10800
G1 F1200
G1 X103.322 Y53.881 E.0117
G1 X102.923 Y53.813 E.01271
G1 X102.541 Y53.678 E.01271
G1 X102.187 Y53.48 E.01271
G1 X101.871 Y53.225 E.01271
G1 X101.604 Y52.921 E.01271
G1 X101.391 Y52.576 E.01271
G1 X101.24 Y52.2 E.01271
G1 X101.154 Y51.804 E.01271
G1 X101.137 Y51.399 E.01271
G1 X101.189 Y50.997 E.01271
G1 X101.307 Y50.609 E.01271
G1 X101.49 Y50.247 E.01271
G1 X101.731 Y49.921 E.01271
G1 X102.024 Y49.641 E.01271
G1 X102.359 Y49.414 E.01271
G1 X102.729 Y49.247 E.01271
G1 X103.121 Y49.144 E.01271
G1 X103.495 Y49.113 E.01177
G1 X103.925 Y49.143 E.01352
G1 X104.321 Y49.247 E.01283
G1 X104.691 Y49.414 E.01271
G1 X105.026 Y49.641 E.01271
G1 X105.319 Y49.921 E.01271
G1 X105.542 Y50.223 E.01177
G1 X105.741 Y50.605 E.01352
G1 X105.861 Y50.997 E.01283
G1 X105.913 Y51.399 E.01271
G1 X105.896 Y51.804 E.01271
G1 X105.81 Y52.2 E.01271
G1 X105.67 Y52.548 E.01177
G1 X105.449 Y52.918 E.01352
G1 X105.179 Y53.225 E.01283
G1 X104.863 Y53.48 E.01271
G1 X104.509 Y53.678 E.01271
G1 X104.127 Y53.813 E.01271
G1 X103.755 Y53.877 E.01183
G1 X103.696 Y53.504 F10800
;TYPE:External perimeter
G1 F1200
G1 X103.354 Y53.504 E.0107
G1 X103.018 Y53.447 E.0107
G1 X102.696 Y53.333 E.0107
G1 X102.399 Y53.167 E.0107
G1 X102.133 Y52.952 E.0107
G1 X101.908 Y52.696 E.0107
G1 X101.729 Y52.406 E.0107
G1 X101.602 Y52.089 E.0107
G1 X101.53 Y51.755 E.0107
