; generated by PrusaSlicer 2.6.1+win64 on 2023-11-13 at 07:35:44 UTC

; 

; external perimeters extrusion width = 0.61mm
; perimeters extrusion width = 0.65mm
; infill extrusion width = 0.70mm
; solid infill extrusion width = 0.65mm
; top infill extrusion width = 0.60mm
; support material extrusion width = 0.55mm
; first layer extrusion width = 0.65mm

; external perimeters extrusion width = 0.61mm
; perimeters extrusion width = 0.65mm
; infill extrusion width = 0.70mm
; solid infill extrusion width = 0.65mm
; top infill extrusion width = 0.60mm
; support material extrusion width = 0.55mm
; first layer extrusion width = 0.65mm

; external perimeters extrusion width = 0.61mm
; perimeters extrusion width = 0.65mm
; infill extrusion width = 0.70mm
; solid infill extrusion width = 0.65mm
; top infill extrusion width = 0.60mm
; support material extrusion width = 0.55mm
; first layer extrusion width = 0.65mm

M73 P0 R49
M201 X9000 Y9000 Z500 E10000 ; sets maximum accelerations, mm/sec^2
M203 X500 Y500 Z12 E120 ; sets maximum feedrates, mm / sec
M204 S2000 T1500 ; sets acceleration (S) and retract acceleration (R), mm/sec^2
M205 X10.00 Y10.00 Z0.20 E4.50 ; sets the jerk limits, mm/sec
M205 S0 T0 ; sets the minimum extruding and travel feed rate, mm/sec
;TYPE:Custom
M862.3 P "MK2.5S" ; printer model check
M862.1 P0.6 ; nozzle diameter check
M115 U3.11.0 ; tell printer latest fw version
G90 ; use absolute coordinates
M83 ; extruder relative mode
M104 S230 ; set extruder temp
M140 S85 ; set bed temp
M190 S85 ; wait for bed temp
M109 S230 ; wait for extruder temp
G28 W ; home all without mesh bed level
G80 ; mesh bed leveling

G1 Z0.2 F720
G1 Y-3 F1000 ; go outside print area
G92 E0
G1 X60 E9 F1000 ; intro line
G1 X100 E12.5 F1000 ; intro line

G92 E0
G21 ; set units to millimeters
G90 ; use absolute coordinates
M83 ; use relative distances for extrusion
M900 K0.04 ; Filament gcode LA 1.5
M900 K24 ; Filament gcode LA 1.0
M107
;LAYER_CHANGE
;Z:0.2
;HEIGHT:0.2
;BEFORE_LAYER_CHANGE
G92 E0.0
;0.2


G1 E-1 F2100
G1 Z.2 F720
;AFTER_LAYER_CHANGE
;0.2
G1 Z.4
G1 X170.604 Y81.981 F10800
G1 Z.2 F720
G1 E1 F1500
M204 S800
;TYPE:Skirt/Brim
;WIDTH:0.65
G1 F1200
G1 X175.571 Y72.923 E.52147
G1 X180.664 Y65.292 E.46312
G1 X191.413 Y52.128 E.85789
G1 X192.049 Y51.539 E.04376
G1 X192.745 Y51.151 E.04022
G1 X202.246 Y47.215 E.51913
G1 X203.031 Y46.996 E.04114
G1 X203.769 Y46.959 E.0373
G1 X227.115 Y48.924 E1.18265
G1 X228.139 Y49.183 E.05332
G1 X228.663 Y49.459 E.0299
G1 X229.133 Y49.821 E.02995
G1 X229.535 Y50.257 E.02994
G1 X229.973 Y50.992 E.04319
G1 X243.375 Y82.081 E1.70895
G1 X243.601 Y83.096 E.05249
G1 X243.567 Y83.938 E.04254
G1 X243.24 Y84.963 E.05431
G1 X242.916 Y85.498 E.03157
G1 X242.504 Y85.969 E.03159
G1 X241.673 Y86.568 E.05171
G1 X234.578 Y90.262 E.40378
G1 X233.367 Y90.556 E.06291
G1 X180.61 Y90.423 E2.66312
G1 X179.412 Y90.129 E.06227
G1 X172.317 Y86.435 E.40378
G1 X171.496 Y85.844 E.05106
G1 X171.099 Y85.396 E.03022
G1 X170.762 Y84.854 E.03222
G1 X170.428 Y83.831 E.05432
G1 X170.384 Y83.02 E.041
G1 X170.585 Y82.07 E.04902
M204 S1000
; printing object lever_index_retainer.STL id:1 copy 0
;WIPE_START
G1 F8640
G1 X172.658 Y78.267 E-1
;WIPE_END
G1 Z.4 F720
G1 X195.574 Y72.926 F10800
G1 Z.2 F720
G1 E1 F1500
M204 S800
;TYPE:Perimeter
;WIDTH:0.847623
G1 F1200
G1 X195.484 Y73.013 E.00838
G1 X194.944 Y73.675 E.05716
G1 X194.552 Y74.355 E.05252
;WIDTH:0.843493
G1 X194.393 Y74.805 E.03177
;WIDTH:0.837018
G1 X194.453 Y74.401 E.02697
;WIDTH:0.847623
G1 X194.484 Y73.954 E.02998
G1 X194.415 Y73.102 E.0572
G1 X194.299 Y72.585 E.03545
G1 X195.487 Y72.903 E.08229
M204 S1000
;WIPE_START
G1 F8640
G1 X195.484 Y73.013 E-.02541
G1 X194.944 Y73.675 E-.19726
G1 X194.552 Y74.355 E-.18124
G1 X194.393 Y74.805 E-.1102
G1 X194.453 Y74.401 E-.09431
G1 X194.484 Y73.954 E-.10346
G1 X194.415 Y73.102 E-.19737
G1 X194.329 Y72.718 E-.09075
;WIPE_END
G1 Z.4 F720
G1 X203.429 Y76.83 F10800
G1 Z.2 F720
G1 E1 F1500
M204 S800
;WIDTH:0.696169
G1 F1200
G1 X203.447 Y76.584 E.0134
;WIDTH:0.737561
G1 X203.464 Y76.338 E.01424
;WIDTH:0.778953
G1 X203.482 Y76.092 E.0151
G1 X203.347 Y75.358 E.04568
G1 X203.09 Y74.658 E.04564
G1 X202.84 Y74.209 E.03145
G1 X203.985 Y74.516 E.07255
G1 X203.89 Y74.871 E.02249
G1 X203.56 Y76.101 E.07794
G1 X203.516 Y76.344 E.01511
;WIDTH:0.737561
G1 X203.473 Y76.587 E.01425
;WIDTH:0.696169
G1 X203.445 Y76.741 E.0085
M204 S1000
;WIPE_START
G1 F8640
G1 X203.447 Y76.584 E-.03625
G1 X203.464 Y76.338 E-.05694
G1 X203.482 Y76.092 E-.05695
G1 X203.347 Y75.358 E-.17233
G1 X203.09 Y74.658 E-.17218
G1 X202.84 Y74.209 E-.11866
G1 X203.985 Y74.516 E-.27372
G1 X203.89 Y74.871 E-.08485
G1 X203.858 Y74.989 E-.02812
;WIPE_END
G1 Z.4 F720
G1 X202.824 Y78.857 F10800
G1 Z.2 F720
G1 E1 F1500
M204 S800
;WIDTH:0.774838
G1 F1200
G1 X202.332 Y80.693 E.11568
G1 X201.187 Y80.387 E.07213
G1 X201.364 Y80.288 E.01234
G1 X201.969 Y79.852 E.04538
G1 X202.491 Y79.32 E.04536
G1 X202.771 Y78.93 E.02922
M204 S1000
;WIPE_START
G1 F8640
G1 X202.332 Y80.693 E-.41951
G1 X201.187 Y80.387 E-.27366
G1 X201.364 Y80.288 E-.04683
G1 X201.969 Y79.852 E-.17219
G1 X202.235 Y79.581 E-.08781
;WIPE_END
G1 Z.4 F720
G1 X198.543 Y80.286 F10800
G1 Z.2 F720
G1 E1 F1500
M204 S800
;WIDTH:0.815074
G1 F1200
G1 X198.703 Y80.275 E.0103
;WIDTH:0.773806
G1 X198.862 Y80.265 E.00968
;WIDTH:0.732537
G1 X199.022 Y80.255 E.00919
;WIDTH:0.691268
G1 X199.181 Y80.244 E.00859
;WIDTH:0.649999
G1 X199.818 Y80.175 E.03234
G1 X200.444 Y79.994 E.03289
G1 X200.989 Y79.733 E.0305
G1 X201.506 Y79.368 E.03195
G1 X201.953 Y78.922 E.03187
G1 X202.318 Y78.406 E.0319
G1 X202.591 Y77.835 E.03195
G1 X202.74 Y77.347 E.02576
G1 X202.824 Y76.753 E.03028
G1 X202.811 Y76.12 E.03196
G1 X202.69 Y75.5 E.03189
G1 X202.467 Y74.908 E.03193
G1 X202.147 Y74.363 E.0319
G1 X201.739 Y73.88 E.03192
G1 X201.255 Y73.473 E.03192
;WIDTH:0.691168
G1 X201.156 Y73.391 E.00693
;WIDTH:0.732337
G1 X201.057 Y73.309 E.00737
;WIDTH:0.773505
G1 X200.958 Y73.227 E.00781
;WIDTH:0.814674
G1 X200.859 Y73.145 E.00825
;WIDTH:0.855842
G1 X200.76 Y73.063 E.00869
G1 X200.893 Y73.078 E.00905
;WIDTH:0.814674
G1 X201.027 Y73.092 E.00865
;WIDTH:0.773505
G1 X201.16 Y73.106 E.00812
;WIDTH:0.732337
G1 X201.293 Y73.121 E.00767
;WIDTH:0.691168
G1 X201.427 Y73.135 E.00726
;WIDTH:0.649999
G1 X204.807 Y74.041 E.17664
G1 X204.538 Y75.045 E.05247
G1 X202.805 Y81.513 E.33801
G1 X199.156 Y80.535 E.1907
;WIDTH:0.691268
G1 X199.003 Y80.473 E.0089
;WIDTH:0.732537
G1 X198.849 Y80.411 E.00952
;WIDTH:0.773806
G1 X198.696 Y80.348 E.01006
;WIDTH:0.815074
G1 X198.627 Y80.32 E.00478
M204 S1000
;WIPE_START
G1 F8640
G1 X198.703 Y80.275 E-.02039
G1 X198.862 Y80.265 E-.03679
G1 X199.022 Y80.255 E-.03702
G1 X199.181 Y80.244 E-.0368
G1 X199.818 Y80.175 E-.14795
G1 X200.444 Y79.994 E-.15047
G1 X200.989 Y79.733 E-.13953
G1 X201.506 Y79.368 E-.14613
G1 X201.953 Y78.922 E-.1458
G1 X202.301 Y78.43 E-.13912
;WIPE_END
G1 Z.4 F720
G1 X203.429 Y76.83 F10800
G1 Z.2 F720
G1 E1 F1500
M204 S800
;WIDTH:0.654776
G1 F1200
G1 X203.36 Y77.162 E.01725
;WIDTH:0.615864
G1 X203.291 Y77.495 E.0162
;WIDTH:0.594804
G1 X203.145 Y78.005 E.02434
;WIDTH:0.616444
G1 X203.081 Y78.202 E.00988
M204 S1000
;WIPE_START
G1 F8640
G1 X203.145 Y78.005 E-.04783
G1 X203.291 Y77.495 E-.12249
G1 X203.36 Y77.162 E-.07852
G1 X203.429 Y76.83 E-.0783
;WIPE_END
G1 E-.67286 F2100
G1 Z.4 F720
G1 X193.952 Y76.037 F10800
G1 Z.2 F720
G1 E1 F1500
M204 S800
;WIDTH:0.780487
G1 F1200
G1 X194.035 Y75.908 E.00941
;WIDTH:0.823982
G1 X194.133 Y75.755 E.0118
G1 X194.138 Y75.911 E.01014
;WIDTH:0.777714
G1 X194.144 Y76.067 E.00954
;WIDTH:0.731446
G1 X194.162 Y76.487 E.02407
;WIDTH:0.690723
G1 X194.179 Y76.907 E.02264
;WIDTH:0.649999
G1 X194.316 Y77.733 E.04227
G1 X194.536 Y78.408 E.03584
G1 X194.806 Y78.952 E.03066
G1 X195.276 Y79.646 E.04231
G1 X180.76 Y85.246 E.78539
G1 X175.979 Y82.757 E.27209
M73 P0 R48
G1 X176.27 Y82.34 E.02567
G1 X177.292 Y80.72 E.09669
G1 X177.884 Y79.659 E.06133
G1 X178.337 Y78.834 E.04751
G1 X179.168 Y77.109 E.09665
G1 X179.395 Y76.57 E.02952
G1 X179.918 Y76.834 E.02957
G1 X180.525 Y77.003 E.03181
G1 X180.972 Y77.01 E.02257
G1 X181.411 Y76.923 E.02259
G1 X181.925 Y76.685 E.02859
G1 X182.378 Y76.296 E.03014
G1 X182.651 Y75.904 E.02411
G1 X182.835 Y75.443 E.02506
G1 X183.283 Y73.771 E.08738
;WIDTH:0.690293
G1 X183.327 Y73.684 E.00525
;WIDTH:0.730586
G1 X183.371 Y73.597 E.00557
;WIDTH:0.770879
G1 X183.415 Y73.51 E.0059
;WIDTH:0.811172
G1 X183.46 Y73.422 E.00631
;WIDTH:0.851465
G1 X183.504 Y73.335 E.00655
;WIDTH:0.885101
G1 X183.638 Y72.901 E.03181
G1 X183.789 Y72.31 E.04272
;WIDTH:0.910039
G1 X184.014 Y71.545 E.05749
G1 X184.018 Y71.451 E.00678
;WIDTH:0.869963
G1 X184.023 Y71.357 E.00647
;WIDTH:0.829887
G1 X184.027 Y71.263 E.00616
;WIDTH:0.789811
G1 X184.032 Y71.169 E.00585
;WIDTH:0.749735
G1 X184.036 Y71.075 E.00553
;WIDTH:0.709659
G1 X184.084 Y70.84 E.0133
;WIDTH:0.679829
G1 X184.131 Y70.605 E.01269
;WIDTH:0.649999
G1 X184.343 Y69.815 E.04129
G1 X186.109 Y70.288 E.09229
G1 X185.899 Y70.49 E.01471
G1 X185.369 Y71.138 E.04226
;WIDTH:0.693339
G1 X185.28 Y71.252 E.00782
;WIDTH:0.736679
G1 X185.191 Y71.365 E.0083
;WIDTH:0.780019
G1 X185.102 Y71.479 E.00886
;WIDTH:0.823359
G1 X185.013 Y71.592 E.00933
;WIDTH:0.866699
G1 X184.924 Y71.705 E.00985
;WIDTH:0.910039
G1 X184.835 Y71.819 E.01043
G1 X184.563 Y72.632 E.06181
;WIDTH:0.903636
G1 X184.405 Y73.373 E.05422
G1 X184.422 Y73.47 E.00705
;WIDTH:0.861364
G1 X184.438 Y73.568 E.00676
;WIDTH:0.819091
G1 X184.455 Y73.666 E.00642
;WIDTH:0.776818
G1 X184.472 Y73.763 E.00601
;WIDTH:0.734545
G1 X184.488 Y73.861 E.00571
;WIDTH:0.692272
G1 X184.505 Y73.959 E.00537
;WIDTH:0.649999
G1 X184.581 Y74.793 E.04227
G1 X184.738 Y75.41 E.03214
G1 X184.931 Y75.937 E.02833
G1 X185.24 Y76.531 E.0338
G1 X185.62 Y77.055 E.03267
G1 X186 Y77.462 E.02811
G1 X186.484 Y77.883 E.03238
G1 X187.195 Y78.327 E.04231
G1 X187.97 Y78.644 E.04227
G1 X188.788 Y78.825 E.04229
G1 X189.625 Y78.866 E.0423
G1 X190.457 Y78.764 E.04231
G1 X191.259 Y78.524 E.04226
G1 X192.01 Y78.151 E.04233
G1 X192.686 Y77.657 E.04226
G1 X193.27 Y77.055 E.04234
G1 X193.743 Y76.364 E.04227
;WIDTH:0.693495
G1 X193.841 Y76.212 E.00978
;WIDTH:0.736991
G1 X193.904 Y76.113 E.00677
M204 S1000
;WIPE_START
G1 F8640
G1 X194.035 Y75.908 E-.05617
G1 X194.133 Y75.755 E-.04195
G1 X194.138 Y75.911 E-.03604
G1 X194.144 Y76.067 E-.03605
G1 X194.162 Y76.487 E-.09707
G1 X194.179 Y76.907 E-.09706
G1 X194.316 Y77.733 E-.19333
G1 X194.536 Y78.408 E-.16393
G1 X194.806 Y78.952 E-.14023
G1 X195.142 Y79.447 E-.13817
;WIPE_END
G1 Z.4 F720
G1 X196.373 Y79.878 F10800
G1 Z.2 F720
G1 E1 F1500
M204 S800
;WIDTH:0.649999
G1 F1200
G1 X180.723 Y85.911 E.84666
G1 X175.082 Y82.975 E.32101
G1 X175.757 Y82.016 E.0592
G1 X176.778 Y80.396 E.09666
G1 X177.353 Y79.364 E.05963
G1 X177.79 Y78.571 E.04571
G1 X178.655 Y76.769 E.1009
G1 X179.086 Y75.729 E.05683
G1 X180.09 Y76.244 E.05696
G1 X180.599 Y76.4 E.02687
G1 X181.001 Y76.395 E.02029
G1 X181.452 Y76.255 E.02384
G1 X181.839 Y75.983 E.02388
G1 X182.117 Y75.615 E.02328
G1 X182.248 Y75.286 E.01788
G1 X183.914 Y69.071 E.3248
G1 X187.532 Y70.041 E.18908
G1 X186.913 Y70.412 E.03643
G1 X186.355 Y70.891 E.03712
G1 X185.886 Y71.457 E.03711
G1 X185.519 Y72.094 E.03711
G1 X185.265 Y72.784 E.03712
G1 X185.132 Y73.507 E.03711
G1 X185.122 Y74.241 E.03705
G1 X185.237 Y74.968 E.03715
G1 X185.473 Y75.664 E.0371
G1 X185.756 Y76.21 E.03104
G1 X186.108 Y76.694 E.03021
G1 X186.42 Y77.023 E.02289
G1 X186.824 Y77.38 E.02721
G1 X187.445 Y77.774 E.03712
G1 X188.123 Y78.056 E.03707
G1 X188.84 Y78.22 E.03713
G1 X189.574 Y78.261 E.03711
G1 X190.304 Y78.177 E.03709
G1 X191.009 Y77.971 E.03708
G1 X191.67 Y77.648 E.03714
G1 X192.266 Y77.219 E.03707
G1 X192.782 Y76.694 E.03716
G1 X193.201 Y76.091 E.03707
G1 X193.512 Y75.425 E.0371
G1 X193.707 Y74.716 E.03712
G1 X193.778 Y73.984 E.03712
G1 X193.739 Y73.324 E.03337
G1 X193.625 Y72.784 E.02786
G1 X193.371 Y72.094 E.03712
G1 X193.041 Y71.517 E.03355
G1 X197.192 Y72.629 E.21693
G1 X196.572 Y73 E.03647
G1 X196.014 Y73.479 E.03712
G1 X195.545 Y74.045 E.03711
G1 X195.178 Y74.682 E.03711
G1 X194.924 Y75.372 E.03712
G1 X194.791 Y76.095 E.03711
G1 X194.782 Y76.83 E.0371
G1 X194.897 Y77.556 E.0371
G1 X195.133 Y78.252 E.0371
G1 X195.483 Y78.898 E.03709
G1 X195.948 Y79.486 E.03784
G1 X196.307 Y79.817 E.02465
M204 S1000
;WIPE_START
G1 F8640
G1 X192.274 Y81.394 E-1
;WIPE_END
G1 Z.4 F720
G1 X199.432 Y72.703 F10800
G1 Z.2 F720
G1 E1 F1500
M204 S800
;WIDTH:0.846842
G1 F1200
G1 X199.343 Y72.713 E.00599
;WIDTH:0.817356
G1 X199.183 Y72.738 E.01043
;WIDTH:0.775517
G1 X199.023 Y72.763 E.00986
;WIDTH:0.733678
G1 X198.863 Y72.787 E.00929
;WIDTH:0.691839
G1 X198.703 Y72.812 E.00874
;WIDTH:0.649999
G1 X198.064 Y72.939 E.03289
G1 X197.499 Y73.153 E.0305
G1 X196.953 Y73.473 E.03195
G1 X196.47 Y73.88 E.03188
M73 P1 R48
G1 X196.062 Y74.363 E.03192
G1 X195.741 Y74.908 E.03193
G1 X195.518 Y75.5 E.03193
G1 X195.398 Y76.12 E.03188
G1 X195.384 Y76.753 E.03196
G1 X195.477 Y77.378 E.0319
G1 X195.675 Y77.979 E.03194
G1 X195.971 Y78.537 E.03188
G1 X196.364 Y79.044 E.03238
G1 X196.846 Y79.481 E.03284
G1 X197.264 Y79.762 E.02542
;WIDTH:0.690218
G1 X197.387 Y79.841 E.00787
;WIDTH:0.730437
G1 X197.51 Y79.92 E.00836
;WIDTH:0.770656
G1 X197.633 Y80 E.00888
;WIDTH:0.810874
G1 X197.757 Y80.079 E.00939
G1 X197.624 Y80.109 E.00871
;WIDTH:0.770656
G1 X197.492 Y80.139 E.00819
;WIDTH:0.730437
G1 X197.359 Y80.169 E.00779
;WIDTH:0.690218
G1 X197.227 Y80.2 E.0073
;WIDTH:0.649999
G1 X180.686 Y86.576 E.89485
G1 X174.185 Y83.192 E.36996
G1 X175.243 Y81.692 E.09266
G1 X176.265 Y80.073 E.09665
G1 X176.822 Y79.07 E.05791
G1 X177.243 Y78.307 E.04399
G1 X178.095 Y76.536 E.09921
G1 X178.777 Y74.888 E.09003
G1 X180.363 Y75.702 E.08999
G1 X180.672 Y75.797 E.01632
G1 X180.958 Y75.787 E.01445
G1 X181.272 Y75.661 E.01708
G1 X181.518 Y75.43 E.01703
G1 X181.662 Y75.129 E.01684
G1 X183.484 Y68.328 E.35541
G1 X188.608 Y69.701 E.26778
;WIDTH:0.659102
G1 X189.249 Y69.877 E.03406
;WIDTH:0.706037
G1 X189.38 Y69.936 E.00792
;WIDTH:0.752971
G1 X189.511 Y69.996 E.00851
;WIDTH:0.799906
G1 X189.642 Y70.055 E.00904
;WIDTH:0.84684
G1 X189.773 Y70.114 E.0096
G1 X189.684 Y70.125 E.00599
;WIDTH:0.817355
G1 X189.526 Y70.149 E.01029
;WIDTH:0.775516
G1 X189.368 Y70.174 E.00974
;WIDTH:0.733677
G1 X189.21 Y70.198 E.00918
;WIDTH:0.691838
G1 X189.052 Y70.222 E.00862
;WIDTH:0.649999
G1 X188.431 Y70.342 E.03193
G1 X187.839 Y70.565 E.03193
G1 X187.294 Y70.884 E.03188
G1 X186.81 Y71.292 E.03195
G1 X186.402 Y71.775 E.03192
G1 X186.082 Y72.32 E.0319
G1 X185.859 Y72.912 E.03193
G1 X185.738 Y73.532 E.03189
G1 X185.725 Y74.164 E.03191
G1 X185.818 Y74.79 E.03195
G1 X186.015 Y75.39 E.03188
G1 X186.312 Y75.949 E.03195
G1 X186.698 Y76.449 E.03189
G1 X187.164 Y76.877 E.03194
G1 X187.695 Y77.22 E.03191
G1 X188.276 Y77.469 E.03191
G1 X188.891 Y77.615 E.03191
G1 X189.522 Y77.656 E.03192
G1 X190.151 Y77.589 E.03193
G1 X190.759 Y77.417 E.0319
G1 X191.33 Y77.145 E.03193
G1 X191.846 Y76.78 E.0319
G1 X192.294 Y76.333 E.03195
G1 X192.659 Y75.817 E.0319
G1 X192.932 Y75.247 E.0319
G1 X193.104 Y74.639 E.0319
G1 X193.172 Y74.01 E.03194
G1 X193.14 Y73.423 E.02968
G1 X193.031 Y72.912 E.02637
G1 X192.808 Y72.32 E.03193
G1 X192.487 Y71.775 E.03193
G1 X192.079 Y71.292 E.03192
G1 X191.596 Y70.884 E.03192
;WIDTH:0.691167
G1 X191.497 Y70.803 E.00689
;WIDTH:0.732334
G1 X191.398 Y70.721 E.00737
;WIDTH:0.773502
G1 X191.299 Y70.639 E.00781
;WIDTH:0.814669
G1 X191.2 Y70.557 E.00825
;WIDTH:0.855836
G1 X191.101 Y70.475 E.00869
G1 X191.234 Y70.489 E.00904
;WIDTH:0.814669
G1 X191.367 Y70.504 E.00859
;WIDTH:0.773502
G1 X191.501 Y70.518 E.00818
;WIDTH:0.732334
G1 X191.634 Y70.533 E.00767
;WIDTH:0.691167
G1 X191.767 Y70.547 E.00721
;WIDTH:0.649999
G1 X198.231 Y72.279 E.33781
;WIDTH:0.65907
G1 X198.908 Y72.465 E.03597
;WIDTH:0.706013
G1 X199.039 Y72.524 E.00792
;WIDTH:0.752956
G1 X199.17 Y72.584 E.00851
;WIDTH:0.799899
G1 X199.301 Y72.643 E.00904
;WIDTH:0.846842
G1 X199.35 Y72.665 E.00359
M204 S1000
;WIPE_START
G1 F8640
G1 X199.343 Y72.713 E-.0112
G1 X199.183 Y72.738 E-.03739
G1 X199.023 Y72.763 E-.03739
G1 X198.863 Y72.787 E-.03736
