; generated by PrusaSlicer 2.6.1+win64 on 2023-11-11 at 23:23:09 UTC

; 

; external perimeters extrusion width = 0.61mm
; perimeters extrusion width = 0.65mm
; infill extrusion width = 0.70mm
; solid infill extrusion width = 0.65mm
; top infill extrusion width = 0.60mm
; support material extrusion width = 0.55mm
; first layer extrusion width = 0.65mm

M73 P0 R10
M201 X9000 Y9000 Z500 E10000 ; sets maximum accelerations, mm/sec^2
M203 X500 Y500 Z12 E120 ; sets maximum feedrates, mm / sec
M204 S2000 T1500 ; sets acceleration (S) and retract acceleration (R), mm/sec^2
M205 X10.00 Y10.00 Z0.20 E4.50 ; sets the jerk limits, mm/sec
M205 S0 T0 ; sets the minimum extruding and travel feed rate, mm/sec
;TYPE:Custom
M862.3 P "MK2.5S" ; printer model check
M862.1 P0.6 ; nozzle diameter check
M115 U3.11.0 ; tell printer latest fw version
G90 ; use absolute coordinates
M83 ; extruder relative mode
M104 S230 ; set extruder temp
M140 S85 ; set bed temp
M190 S85 ; wait for bed temp
M109 S230 ; wait for extruder temp
G28 W ; home all without mesh bed level
G80 ; mesh bed leveling

G1 Z0.2 F720
G1 Y-3 F1000 ; go outside print area
G92 E0
G1 X60 E9 F1000 ; intro line
G1 X100 E12.5 F1000 ; intro line

G92 E0
G21 ; set units to millimeters
G90 ; use absolute coordinates
M83 ; use relative distances for extrusion
M900 K0.04 ; Filament gcode LA 1.5
M900 K24 ; Filament gcode LA 1.0
M107
;LAYER_CHANGE
;Z:0.2
;HEIGHT:0.2
;BEFORE_LAYER_CHANGE
G92 E0.0
;0.2


G1 E-1 F2100
G1 Z.2 F720
;AFTER_LAYER_CHANGE
;0.2
G1 Z.4
G1 X113.922 Y88.709 F10800
G1 Z.2 F720
M73 P1 R10
G1 E1 F1500
M204 S800
;TYPE:Skirt/Brim
;WIDTH:0.65
G1 F1200
G1 X114.428 Y88.242 E.03476
G1 X115.005 Y87.867 E.03474
G1 X115.636 Y87.594 E.03471
G1 X117.58 Y87.143 E.10074
G1 X119.22 Y86.949 E.08336
G1 X120.871 Y86.918 E.08336
G1 X122.263 Y87.017 E.07044
G1 X123.892 Y87.283 E.08332
G1 X125.488 Y87.706 E.08335
G1 X127.034 Y88.284 E.08332
G1 X128.517 Y89.011 E.08337
G1 X129.921 Y89.878 E.0833
G1 X131.493 Y91.109 E.10079
G1 X131.95 Y91.624 E.03476
G1 X132.287 Y92.154 E.0317
G1 X137.804 Y103.124 E.61984
G1 X138.082 Y104.295 E.06075
G1 X138.082 Y120.482 E.8171
G1 X137.689 Y121.857 E.07219
G1 X136.631 Y122.819 E.07218
G1 X135.475 Y123.089 E.05992
G1 X125.475 Y123.089 E.50479
G1 X124.099 Y122.697 E.07222
G1 X123.158 Y121.677 E.07005
G1 X112.209 Y100.46 E1.20521
G1 X111.936 Y98.962 E.07686
G1 X112.868 Y90.994 E.40496
G1 X113.085 Y90.094 E.04673
G1 X113.499 Y89.257 E.04714
G1 X113.867 Y88.78 E.03041
M204 S1000
; printing object lever_index_bump.STL id:0 copy 0
;WIPE_START
G1 F8640
G1 X114.428 Y88.242 E-.17948
G1 X115.005 Y87.867 E-.1589
G1 X115.636 Y87.594 E-.15875
G1 X117.58 Y87.143 E-.4608
G1 X117.761 Y87.122 E-.04207
;WIPE_END
G1 Z.4 F720
G1 X133.736 Y116.008 F10800
G1 Z.2 F720
G1 E1 F1500
M204 S800
;TYPE:Perimeter
;WIDTH:0.649999
G1 F1200
G1 X133.736 Y118.743 E.13806
G1 X132.174 Y118.743 E.07885
G1 X131.539 Y118.762 E.03207
;WIDTH:0.61172
G1 X131.231 Y118.778 E.01459
;WIDTH:0.580196
G1 X130.922 Y118.793 E.01382
;WIDTH:0.548671
G1 X130.314 Y118.799 E.02557
;WIDTH:0.575687
G1 X129.705 Y118.78 E.02699
;WIDTH:0.612843
G1 X129.397 Y118.761 E.01462
;WIDTH:0.649999
G1 X129.088 Y118.743 E.01562
G1 X127.214 Y118.743 E.0946
G1 X127.214 Y116.008 E.13806
M73 P2 R10
G1 X127.372 Y116.408 E.02171
G1 X127.662 Y116.905 E.02905
G1 X128.031 Y117.346 E.02903
G1 X128.468 Y117.72 E.02903
G1 X128.962 Y118.015 E.02904
G1 X129.504 Y118.207 E.02903
;WIDTH:0.612567
G1 X129.786 Y118.249 E.0135
;WIDTH:0.58062
G1 X130.069 Y118.291 E.01279
;WIDTH:0.548672
G1 X130.636 Y118.306 E.02385
;WIDTH:0.576597
G1 X131.209 Y118.25 E.02555
;WIDTH:0.613298
G1 X131.482 Y118.184 E.01332
;WIDTH:0.649999
G1 X131.756 Y118.119 E.01422
G1 X132.27 Y117.86 E.02905
G1 X132.733 Y117.52 E.029
G1 X133.134 Y117.107 E.02906
G1 X133.46 Y116.633 E.02904
G1 X133.699 Y116.09 E.02995
M204 S1000
;WIPE_START
G1 F8640
G1 X133.736 Y118.743 E-.61264
G1 X132.174 Y118.743 E-.36067
G1 X132.058 Y118.746 E-.02669
;WIPE_END
G1 Z.4 F720
G1 X127.915 Y118.009 F10800
G1 Z.2 F720
G1 E1 F1500
M204 S800
;WIDTH:0.750614
G1 F1200
G1 X127.827 Y118.009 E.00518
G1 X127.783 Y118.085 E.00517
G1 X127.827 Y118.162 E.00522
G1 X127.915 Y118.162 E.00518
G1 X127.96 Y118.085 E.00525
M204 S1000
;WIPE_START
G1 F8640
G1 X127.915 Y118.162 E-.02059
G1 X127.827 Y118.162 E-.02032
G1 X127.783 Y118.085 E-.02048
G1 X127.827 Y118.009 E-.02028
G1 X127.915 Y118.009 E-.02032
;WIPE_END
G1 E-.89801 F2100
G1 Z.4 F720
G1 X133.122 Y118.009 F10800
G1 Z.2 F720
G1 E1 F1500
M204 S800
G1 F1200
G1 X133.034 Y118.009 E.00518
G1 X132.99 Y118.085 E.00517
G1 X133.034 Y118.162 E.00522
G1 X133.122 Y118.162 E.00518
G1 X133.167 Y118.085 E.00525
M204 S1000
;WIPE_START
G1 F8640
G1 X133.122 Y118.162 E-.02059
G1 X133.034 Y118.162 E-.02032
G1 X132.99 Y118.085 E-.02048
G1 X133.034 Y118.009 E-.02028
G1 X133.122 Y118.009 E-.02032
;WIPE_END
G1 E-.89801 F2100
G1 Z.4 F720
G1 X126.697 Y103.365 F10800
G1 Z.2 F720
G1 E1 F1500
M204 S800
;WIDTH:0.649999
G1 F1200
G1 X126.65 Y103.506 E.0075
G1 X126.542 Y104.156 E.03326
G1 X126.538 Y104.756 E.03029
G1 X126.617 Y105.3 E.02775
G1 X126.811 Y105.94 E.03376
G1 X127.11 Y106.539 E.03379
G1 X127.506 Y107.078 E.03376
G1 X127.987 Y107.542 E.03374
G1 X128.42 Y107.845 E.02668
G1 X128.862 Y108.081 E.02529
G1 X129.493 Y108.301 E.03373
G1 X130.153 Y108.412 E.03378
G1 X130.822 Y108.41 E.03377
G1 X131.514 Y108.285 E.0355
G1 X132.111 Y108.07 E.03203
G1 X132.694 Y107.742 E.03377
G1 X133.128 Y107.394 E.02808
G1 X133.126 Y111.559 E.21024
G1 X132.881 Y111.358 E.016
G1 X132.303 Y110.988 E.03464
G1 X131.67 Y110.724 E.03462
G1 X131.077 Y110.587 E.03072
G1 X130.552 Y110.542 E.0266
G1 X129.948 Y110.574 E.03053
G1 X129.395 Y110.686 E.02848
G1 X128.884 Y110.87 E.02742
G1 X128.342 Y111.163 E.0311
G1 X127.826 Y111.561 E.03289
G1 X127.36 Y112.064 E.03461
G1 X127.09 Y112.464 E.02436
G1 X119.086 Y101.525 E.68422
G1 X123.857 Y102.577 E.24662
G1 X124.121 Y102.618 E.01349
G1 X124.735 Y102.674 E.03112
G1 X125.266 Y102.654 E.02682
G1 X125.859 Y102.461 E.03148
G1 X126.308 Y102.845 E.02982
G1 X126.775 Y103.126 E.02751
G1 X126.725 Y103.279 E.00813
M204 S1000
G1 X127.251 Y103.658 F10800
M204 S800
G1 F1200
G1 X127.164 Y104.066 E.02106
G1 X127.142 Y104.645 E.02925
G1 X127.215 Y105.198 E.02816
G1 X127.383 Y105.738 E.02855
G1 X127.64 Y106.242 E.02856
G1 X127.978 Y106.696 E.02857
G1 X128.388 Y107.086 E.02856
G1 X128.918 Y107.436 E.03206
G1 X129.451 Y107.661 E.0292
G1 X130.015 Y107.79 E.02921
G1 X130.552 Y107.82 E.02715
G1 X131.051 Y107.769 E.02532
G1 X131.599 Y107.624 E.02861
G1 X132.113 Y107.389 E.02853
G1 X132.581 Y107.07 E.02859
G1 X132.988 Y106.677 E.02856
G1 X133.323 Y106.22 E.0286
G1 X133.576 Y105.714 E.02856
G1 X133.751 Y105.049 E.03471
;WIDTH:0.625979
G1 X133.748 Y105.171 E.00592
;WIDTH:0.649999
G1 X133.736 Y113.151 E.40282
;WIDTH:0.657153
G1 X133.724 Y113.663 E.02616
G1 X133.658 Y113.481 E.00989
;WIDTH:0.649999
G1 X133.437 Y112.945 E.02927
G1 X133.126 Y112.455 E.0293
G1 X132.734 Y112.027 E.0293
G1 X132.275 Y111.672 E.02929
G1 X131.761 Y111.403 E.02928
G1 X131.208 Y111.227 E.02929
G1 X130.633 Y111.149 E.02929
G1 X130.053 Y111.172 E.0293
G1 X129.486 Y111.295 E.02929
G1 X128.949 Y111.514 E.02927
G1 X128.458 Y111.823 E.02928
G1 X128.028 Y112.213 E.0293
G1 X127.672 Y112.671 E.02928
G1 X127.397 Y113.195 E.02987
;WIDTH:0.654457
G1 X127.177 Y113.895 E.03731
G1 X127.14 Y113.668 E.0117
G1 X126.921 Y113.262 E.02346
;WIDTH:0.649999
G1 X117.647 Y100.586 E.79284
G1 X124.176 Y102.013 E.33736
G1 X124.784 Y102.069 E.03082
M73 P3 R10
G1 X125.168 Y102.055 E.0194
G1 X125.612 Y101.909 E.02359
G1 X125.934 Y101.726 E.0187
G1 X126.689 Y102.372 E.05016
G1 X127.109 Y102.612 E.02442
G1 X127.604 Y102.791 E.02657
G1 X127.497 Y102.98 E.01096
G1 X127.27 Y103.57 E.03191
M204 S1000
;WIPE_START
G1 F8640
G1 X127.164 Y104.066 E-.11711
G1 X127.142 Y104.645 E-.13379
G1 X127.215 Y105.198 E-.1288
G1 X127.383 Y105.738 E-.13058
G1 X127.64 Y106.242 E-.13063
G1 X127.978 Y106.696 E-.13069
G1 X128.388 Y107.086 E-.13066
G1 X128.741 Y107.319 E-.09774
;WIPE_END
G1 Z.4 F720
G1 X134.343 Y112.186 F10800
G1 Z.2 F720
G1 E1 F1500
M204 S800
G1 F1200
G1 X134.343 Y113.151 E.04871
;WIDTH:0.657153
G1 X134.339 Y113.663 E.02615
;WIDTH:0.705632
G1 X134.315 Y113.778 E.00647
;WIDTH:0.75411
G1 X134.291 Y113.894 E.00701
;WIDTH:0.802589
G1 X134.266 Y114.01 E.0075
;WIDTH:0.851067
G1 X134.242 Y114.126 E.00796
;WIDTH:0.899545
G1 X134.218 Y114.242 E.00844
G1 X134.225 Y114.418 E.01255
;WIDTH:0.884978
G1 X134.235 Y114.979 E.03929
;WIDTH:0.865613
G1 X134.241 Y115.543 E.03858
;WIDTH:0.852703
G1 X134.262 Y115.658 E.00787
;WIDTH:0.812163
G1 X134.282 Y115.773 E.00747
;WIDTH:0.771622
G1 X134.302 Y115.888 E.00707
;WIDTH:0.731081
G1 X134.322 Y116.003 E.00668
;WIDTH:0.69054
G1 X134.343 Y116.118 E.0063
;WIDTH:0.649999
G1 X134.343 Y119.35 E.16315
G1 X126.607 Y119.35 E.3905
G1 X126.607 Y116.118 E.16315
;WIDTH:0.690542
G1 X126.627 Y116.003 E.00629
;WIDTH:0.731084
G1 X126.647 Y115.888 E.00668
;WIDTH:0.771626
G1 X126.668 Y115.773 E.00708
;WIDTH:0.812168
G1 X126.688 Y115.658 E.00747
;WIDTH:0.85271
G1 X126.708 Y115.543 E.00786
;WIDTH:0.875727
G1 X126.716 Y114.739 E.05568
;WIDTH:0.868123
G1 X126.714 Y114.158 E.03987
;WIDTH:0.864484
G1 X126.657 Y114.05 E.00834
;WIDTH:0.821587
G1 X126.601 Y113.943 E.00782
;WIDTH:0.77869
G1 X126.544 Y113.835 E.00747
;WIDTH:0.735793
G1 X126.488 Y113.728 E.00696
;WIDTH:0.692896
G1 X126.431 Y113.62 E.0066
;WIDTH:0.649999
G1 X116.207 Y99.647 E.87399
G1 X124.232 Y101.409 E.41474
G1 X124.839 Y101.464 E.03077
G1 X125.138 Y101.442 E.01513
G1 X125.556 Y101.256 E.02309
G1 X125.841 Y101.028 E.01842
G1 X125.875 Y100.81 E.01114
G1 X126.156 Y101.116 E.02097
G1 X127.124 Y101.94 E.06417
G1 X127.633 Y102.166 E.02811
G1 X128.723 Y102.42 E.0565
G1 X128.281 Y102.866 E.0317
G1 X128.034 Y103.263 E.0236
G1 X127.854 Y103.717 E.02465
G1 X127.762 Y104.169 E.02328
G1 X127.749 Y104.641 E.02384
G1 X127.814 Y105.095 E.02315
G1 X127.956 Y105.536 E.02339
G1 X128.23 Y106.04 E.02896
G1 X128.557 Y106.426 E.02554
G1 X129.001 Y106.776 E.02854
G1 X129.479 Y107.02 E.02709
G1 X129.936 Y107.155 E.02405
G1 X130.413 Y107.208 E.02423
G1 X130.898 Y107.176 E.02454
G1 X131.421 Y107.043 E.02724
G1 X131.84 Y106.847 E.02335
G1 X132.22 Y106.582 E.02339
G1 X132.55 Y106.257 E.02338
G1 X132.82 Y105.88 E.02341
G1 X133.023 Y105.464 E.02337
G1 X133.152 Y105.019 E.02339
G1 X133.203 Y104.556 E.02351
G1 X133.173 Y104.088 E.02367
G1 X133.06 Y103.651 E.02278
G1 X132.908 Y103.316 E.01857
G1 X133.347 Y103.433 E.02293
G1 X134.343 Y104.689 E.08092
G1 X134.343 Y104.892 E.01025
G1 X134.343 Y112.096 E.36365
M204 S1000
;WIPE_START
G1 F8640
G1 X134.343 Y113.151 E-.2436
G1 X134.339 Y113.663 E-.11823
G1 X134.315 Y113.778 E-.02713
G1 X134.291 Y113.894 E-.02735
G1 X134.266 Y114.01 E-.0274
G1 X134.242 Y114.126 E-.02735
G1 X134.218 Y114.242 E-.02735
G1 X134.225 Y114.418 E-.04067
G1 X134.235 Y114.979 E-.12956
G1 X134.241 Y115.543 E-.13024
G1 X134.262 Y115.658 E-.02699
G1 X134.282 Y115.773 E-.02695
G1 X134.302 Y115.888 E-.02695
G1 X134.322 Y116.003 E-.02695
G1 X134.343 Y116.118 E-.02699
G1 X134.343 Y116.405 E-.06629
;WIPE_END
G1 Z.4 F720
G1 X133.76 Y104.892 F10800
G1 Z.2 F720
G1 E1 F1500
M204 S800
;WIDTH:0.61982
G1 F1200
G1 X133.751 Y105.049 E.00754
M204 S1000
;WIPE_START
G1 F8640
G1 X133.76 Y104.892 E-.03631
;WIPE_END
G1 E-.96369 F2100
G1 Z.4 F720
G1 X125.415 Y100.335 F10800
G1 Z.2 F720
G1 E1 F1500
M204 S800
;TYPE:External perimeter
;WIDTH:0.633891
G1 F1200
G1 X125.381 Y100.13 E.01021
;WIDTH:0.611557
G1 X125.279 Y99.992 E.00811
;WIDTH:0.566508
G1 X125.177 Y99.853 E.00751
;WIDTH:0.521459
G1 X116.434 Y92.666 E.45034
;WIDTH:0.563342
G1 X116.407 Y92.617 E.00242
;WIDTH:0.605225
G1 X116.38 Y92.567 E.00266
;WIDTH:0.647108
G1 X116.353 Y92.518 E.00281
;WIDTH:0.688991
G1 X116.325 Y92.468 E.00308
;WIDTH:0.730874
G1 X116.298 Y92.419 E.0032
;WIDTH:0.772756
G1 X116.271 Y92.369 E.00345
;WIDTH:0.817867
G1 X116.248 Y92.309 E.00414
;WIDTH:0.862978
G1 X116.225 Y92.248 E.00445
;WIDTH:0.908089
G1 X116.202 Y92.188 E.00462
;WIDTH:0.9532
G1 X116.179 Y92.127 E.00493
;WIDTH:0.99831
G1 X116.156 Y92.067 E.0051
G1 X116.195 Y92.09 E.0036
;WIDTH:0.962337
G1 X116.233 Y92.112 E.00336
;WIDTH:0.926364
G1 X116.272 Y92.135 E.00333
;WIDTH:0.890391
G1 X116.331 Y92.155 E.00439
;WIDTH:0.844275
G1 X116.389 Y92.175 E.00409
;WIDTH:0.798158
G1 X116.447 Y92.196 E.00387
;WIDTH:0.752042
G1 X116.505 Y92.216 E.00362
;WIDTH:0.705925
G1 X116.564 Y92.236 E.00343
;WIDTH:0.659809
G1 X116.622 Y92.256 E.00315
;WIDTH:0.613692
G1 X116.68 Y92.276 E.00291
;WIDTH:0.567576
G1 X116.738 Y92.297 E.00269
;WIDTH:0.521459
G1 X125.481 Y99.484 E.45034
;WIDTH:0.535057
G1 X125.601 Y99.591 E.00658
;WIDTH:0.584474
M73 P4 R10
G1 X125.788 Y99.791 E.01233
;WIDTH:0.633891
G1 X125.975 Y99.991 E.01345
;WIDTH:0.649999
G1 X126.551 Y100.655 E.04437
G1 X127.442 Y101.42 E.05928
G1 X127.857 Y101.602 E.02287
G1 X128.87 Y101.825 E.05236
;WIDTH:0.653786
G1 X129.451 Y101.904 E.02978
;WIDTH:0.666486
G1 X130.357 Y101.984 E.04716
;WIDTH:0.63983
G1 X130.724 Y102.026 E.01833
;WIDTH:0.621465
G1 X131.396 Y102.176 E.03312
;WIDTH:0.664973
G1 X132.71 Y102.634 E.07198
;WIDTH:0.649999
G1 X133.698 Y102.899 E.05164
G1 X134.95 Y104.478 E.10172
G1 X134.95 Y104.892 E.0209
G1 X134.95 Y119.957 E.76046
G1 X126 Y119.957 E.45179
G1 X126 Y114.158 E.29273
G1 X125.941 Y113.979 E.00951
G1 X115.089 Y99.146 E.92774
G1 X115.167 Y98.796 E.0181
G1 X124.287 Y100.804 E.47139
G1 X124.971 Y100.857 E.03463
G1 X125.345 Y100.671 E.02108
G1 X125.397 Y100.423 E.01279
M204 S1000
G1 X125.606 Y100.254 F10800
;WIPE_START
G1 F8640
G1 X125.381 Y100.13 E-.06776
G1 X125.279 Y99.992 E-.03962
G1 X125.177 Y99.853 E-.03981
G1 X122.324 Y97.508 E-.85281
;WIPE_END
G1 Z.4 F720
G1 X128.408 Y104.017 F10800
G1 Z.2 F720
G1 E1 F1500
M204 S800
G1 F1200
G1 X128.425 Y103.921 E.00492
G1 X128.562 Y103.564 E.0193
G1 X128.739 Y103.264 E.01758
G1 X129.094 Y102.907 E.02541
G1 X129.437 Y102.706 E.02007
;WIDTH:0.658912
G1 X129.642 Y102.624 E.01131
;WIDTH:0.666486
G1 X129.98 Y102.564 E.0178
G1 X130.536 Y102.573 E.02883
;WIDTH:0.621396
G1 X131.139 Y102.699 E.02963
;WIDTH:0.662397
G1 X131.714 Y102.945 E.03221
G1 X132.059 Y103.194 E.02192
;WIDTH:0.652565
G1 X132.298 Y103.464 E.01828
;WIDTH:0.649999
G1 X132.479 Y103.826 E.02043
G1 X132.569 Y104.146 E.01678
G1 X132.598 Y104.506 E.01823
G1 X132.564 Y104.866 E.01825
G1 X132.469 Y105.214 E.01821
G1 X132.317 Y105.541 E.0182
G1 X132.112 Y105.837 E.01818
G1 X131.859 Y106.094 E.0182
G1 X131.567 Y106.305 E.01819
G1 X131.243 Y106.463 E.0182
G1 X130.821 Y106.574 E.02203
G1 X130.23 Y106.593 E.02985
G1 X129.706 Y106.457 E.02733
G1 X129.232 Y106.205 E.0271
G1 X128.923 Y105.933 E.02078
G1 X128.7 Y105.65 E.01819
G1 X128.528 Y105.334 E.01816
G1 X128.412 Y104.992 E.01823
G1 X128.356 Y104.641 E.01794
G1 X128.361 Y104.272 E.01863
G1 X128.391 Y104.105 E.00856
M204 S1000
G1 X128.331 Y103.956 F10800
;WIPE_START
G1 F8640
G1 X128.425 Y103.921 E-.04321
G1 X128.562 Y103.564 E-.08829
G1 X128.739 Y103.264 E-.08043
G1 X129.094 Y102.907 E-.11625
G1 X129.437 Y102.706 E-.0918
G1 X129.642 Y102.624 E-.05098
G1 X129.98 Y102.564 E-.07927
G1 X130.536 Y102.573 E-.1284
G1 X131.139 Y102.699 E-.14224
G1 X131.714 Y102.945 E-.14441
G1 X131.836 Y103.033 E-.03472
;WIPE_END
G1 Z.4 F720
G1 X131.608 Y112.008 F10800
G1 Z.2 F720
G1 E1 F1500
M204 S800
;TYPE:Perimeter
G1 F1200
G1 X131.697 Y112.04 E.00477
G1 X132.102 Y112.289 E.024
G1 X132.457 Y112.604 E.02396
G1 X132.752 Y112.976 E.02397
G1 X132.979 Y113.393 E.02397
;WIDTH:0.699909
G1 X133.058 Y113.582 E.01119
;WIDTH:0.749818
G1 X133.136 Y113.771 E.01202
;WIDTH:0.799727
G1 X133.215 Y113.96 E.01289
;WIDTH:0.849636
G1 X133.293 Y114.149 E.01372
;WIDTH:0.899545
G1 X133.372 Y114.337 E.01453
G1 X133.414 Y114.889 E.03943
;WIDTH:0.885204
G1 X133.389 Y115.388 E.03499
G1 X133.34 Y115.485 E.00761
;WIDTH:0.838163
G1 X133.29 Y115.583 E.00727
;WIDTH:0.791122
G1 X133.241 Y115.681 E.00682
;WIDTH:0.744081
G1 X133.192 Y115.778 E.00634
;WIDTH:0.69704
G1 X133.142 Y115.876 E.00598
;WIDTH:0.649999
G1 X132.947 Y116.308 E.02393
G1 X132.683 Y116.701 E.0239
G1 X132.293 Y117.094 E.02795
G1 X131.977 Y117.328 E.01985
G1 X131.556 Y117.545 E.02391
G1 X131.105 Y117.689 E.0239
