; generated by PrusaSlicer 2.6.1+win64 on 2023-11-13 at 02:09:23 UTC

; 

; external perimeters extrusion width = 0.61mm
; perimeters extrusion width = 0.65mm
; infill extrusion width = 0.70mm
; solid infill extrusion width = 0.65mm
; top infill extrusion width = 0.60mm
; support material extrusion width = 0.55mm
; first layer extrusion width = 0.65mm

; external perimeters extrusion width = 0.61mm
; perimeters extrusion width = 0.65mm
; infill extrusion width = 0.70mm
; solid infill extrusion width = 0.65mm
; top infill extrusion width = 0.60mm
; support material extrusion width = 0.55mm
; first layer extrusion width = 0.65mm

M73 P0 R35
M201 X9000 Y9000 Z500 E10000 ; sets maximum accelerations, mm/sec^2
M203 X500 Y500 Z12 E120 ; sets maximum feedrates, mm / sec
M204 S2000 T1500 ; sets acceleration (S) and retract acceleration (R), mm/sec^2
M205 X10.00 Y10.00 Z0.20 E4.50 ; sets the jerk limits, mm/sec
M205 S0 T0 ; sets the minimum extruding and travel feed rate, mm/sec
;TYPE:Custom
M862.3 P "MK2.5S" ; printer model check
M862.1 P0.6 ; nozzle diameter check
M115 U3.11.0 ; tell printer latest fw version
G90 ; use absolute coordinates
M83 ; extruder relative mode
M104 S230 ; set extruder temp
M140 S85 ; set bed temp
M190 S85 ; wait for bed temp
M109 S230 ; wait for extruder temp
G28 W ; home all without mesh bed level
G80 ; mesh bed leveling

G1 Z0.2 F720
G1 Y-3 F1000 ; go outside print area
G92 E0
G1 X60 E9 F1000 ; intro line
G1 X100 E12.5 F1000 ; intro line

G92 E0
G21 ; set units to millimeters
G90 ; use absolute coordinates
M83 ; use relative distances for extrusion
M900 K0.04 ; Filament gcode LA 1.5
M900 K24 ; Filament gcode LA 1.0
M107
;LAYER_CHANGE
;Z:0.2
;HEIGHT:0.2
;BEFORE_LAYER_CHANGE
G92 E0.0
;0.2


G1 E-1 F2100
G1 Z.2 F720
;AFTER_LAYER_CHANGE
;0.2
G1 Z.4
G1 X22.294 Y60.876 F10800
G1 Z.2 F720
G1 E1 F1500
M204 S800
;TYPE:Skirt/Brim
;WIDTH:0.65
G1 F1200
G1 X24.267 Y60.269 E.1042
G1 X25.456 Y60.114 E.06053
G1 X27.029 Y60.143 E.07942
G1 X28.676 Y60.449 E.08456
G1 X30.592 Y61.216 E.10418
G1 X31.96 Y62.099 E.08219
G1 X32.861 Y62.89 E.06052
G1 X33.917 Y64.136 E.08245
G1 X59.111 Y99.952 E2.21045
G1 X59.384 Y100.503 E.03104
G1 X64.255 Y113.124 E.6829
G1 X64.43 Y114.063 E.04822
G1 X64.43 Y128.436 E.72553
G1 X63.89 Y130.026 E.08476
G1 X32.155 Y171.283 E2.62745
G1 X31.006 Y172.134 E.07218
G1 X30.089 Y172.301 E.04705
G1 X22.089 Y172.301 E.40383
G1 X20.713 Y171.908 E.07224
G1 X19.752 Y170.849 E.07219
G1 X19.487 Y169.864 E.05149
G1 X13.561 Y79.447 E4.57394
G1 X13.651 Y78.579 E.04405
G1 X16.857 Y67.037 E.60469
G1 X17.597 Y65.217 E.09918
G1 X18.476 Y63.846 E.08221
G1 X19.914 Y62.343 E.105
G1 X20.868 Y61.637 E.05991
G1 X22.215 Y60.918 E.07708
M204 S1000
; printing object lever.STL id:0 copy 0
;WIPE_START
G1 F8640
G1 X24.267 Y60.269 E-.49695
G1 X25.456 Y60.114 E-.27687
G1 X26.435 Y60.132 E-.22618
;WIPE_END
G1 Z.4 F720
G1 X24.232 Y74.797 F10800
G1 Z.2 F720
G1 E1 F1500
M204 S800
;TYPE:Perimeter
;WIDTH:0.649999
G1 F1200
G1 X24.09 Y74.923 E.00958
G1 X23.698 Y75.414 E.03172
G1 X23.545 Y75.74 E.01818
G1 X23.422 Y76.273 E.02761
G1 X23.422 Y76.686 E.02085
G1 X23.484 Y77.029 E.01759
G1 X28.742 Y96.653 E1.02554
G1 X28.742 Y111.135 E.73103
M73 P1 R35
G1 X28.346 Y110.826 E.02536
G1 X27.746 Y110.493 E.03464
G1 X27.099 Y110.266 E.03461
G1 X26.398 Y110.151 E.03586
G1 X25.713 Y110.156 E.03458
G1 X25.061 Y110.271 E.03342
G1 X24.415 Y110.5 E.0346
G1 X23.817 Y110.836 E.03462
G1 X23.435 Y111.136 E.02452
G1 X23.435 Y97.631 E.68172
G1 X23.362 Y97.081 E.02801
G1 X18.595 Y79.288 E.92985
G1 X20.861 Y71.125 E.42764
G1 X21.035 Y71.67 E.02888
G1 X21.441 Y72.496 E.04646
G1 X21.982 Y73.241 E.04648
G1 X22.37 Y73.646 E.02831
G1 X22.758 Y73.971 E.02555
G1 X23.398 Y74.407 E.03909
G1 X24.151 Y74.759 E.04196
M204 S1000
;WIPE_START
G1 F8640
G1 X24.09 Y74.923 E-.0404
G1 X23.698 Y75.414 E-.14507
G1 X23.545 Y75.74 E-.08315
G1 X23.422 Y76.273 E-.12631
G1 X23.422 Y76.686 E-.09536
G1 X23.484 Y77.029 E-.08048
G1 X23.965 Y78.825 E-.42923
;WIPE_END
G1 Z.4 F720
G1 X30.443 Y67.76 F10800
G1 Z.2 F720
G1 E1 F1500
M204 S800
;WIDTH:0.558
G1 F1200
G1 X30.676 Y68.37 E.02797
G1 X30.833 Y69.16 E.0345
;WIDTH:0.558485
G1 X30.855 Y69.978 E.03508
G1 X30.739 Y70.775 E.03453
;WIDTH:0.558
G1 X30.489 Y71.546 E.03471
G1 X30.113 Y72.263 E.03467
G1 X29.621 Y72.906 E.03468
G1 X29.027 Y73.457 E.0347
G1 X28.349 Y73.899 E.03466
G1 X27.606 Y74.221 E.03468
G1 X26.819 Y74.412 E.03468
;WIDTH:0.558945
G1 X26.011 Y74.468 E.03475
;WIDTH:0.594927
G1 X25.493 Y74.441 E.02381
;WIDTH:0.622463
G1 X25.22 Y74.409 E.01325
;WIDTH:0.649999
G1 X24.948 Y74.377 E.01382
G1 X24.411 Y74.213 E.02834
G1 X23.672 Y73.864 E.04125
G1 X23.119 Y73.483 E.0339
G1 X22.808 Y73.226 E.02037
G1 X22.42 Y72.821 E.02831
G1 X22.258 Y72.621 E.01299
G1 X21.944 Y72.156 E.02832
G1 X21.588 Y71.42 E.04127
G1 X21.361 Y70.635 E.04125
G1 X21.27 Y69.822 E.0413
G1 X21.309 Y69.415 E.02064
;WIDTH:0.619304
G1 X21.348 Y69.008 E.0196
;WIDTH:0.588608
G1 X21.482 Y68.445 E.02626
;WIDTH:0.570554
G1 X21.63 Y67.986 E.02116
;WIDTH:0.558
G1 X21.861 Y67.475 E.02402
G1 X22.297 Y66.792 E.0347
G1 X22.841 Y66.193 E.03466
G1 X23.48 Y65.694 E.03472
G1 X24.193 Y65.311 E.03466
G1 X24.961 Y65.054 E.03469
G1 X25.737 Y64.933 E.03364
G1 X26.561 Y64.943 E.03529
G1 X27.367 Y65.093 E.03511
G1 X28.126 Y65.375 E.03468
G1 X28.827 Y65.782 E.03472
G1 X29.448 Y66.301 E.03466
G1 X29.973 Y66.917 E.03466
G1 X30.41 Y67.676 E.03751
M204 S1000
G1 X29.926 Y67.966 F10800
M204 S800
;WIDTH:0.649999
G1 F1200
G1 X30.147 Y68.557 E.03185
G1 X30.28 Y69.255 E.03587
G1 X30.293 Y69.978 E.0365
G1 X30.186 Y70.681 E.0359
G1 X29.96 Y71.359 E.03608
G1 X29.623 Y71.989 E.03607
G1 X29.184 Y72.554 E.03612
G1 X28.657 Y73.036 E.03605
G1 X28.055 Y73.422 E.0361
G1 X27.396 Y73.7 E.0361
G1 X26.7 Y73.864 E.0361
G1 X25.987 Y73.907 E.03606
G1 X25.276 Y73.829 E.03611
G1 X24.589 Y73.632 E.03608
G1 X23.945 Y73.322 E.03608
G1 X23.48 Y72.995 E.0287
G1 X23.246 Y72.806 E.01518
G1 X22.858 Y72.401 E.02831
G1 X22.447 Y71.816 E.03609
G1 X22.141 Y71.17 E.03608
G1 X21.948 Y70.482 E.03607
G1 X21.875 Y69.771 E.03608
G1 X21.922 Y69.057 E.03612
G1 X22.09 Y68.362 E.03609
G1 X22.372 Y67.706 E.03604
G1 X22.761 Y67.106 E.0361
G1 X23.246 Y66.581 E.03608
G1 X23.813 Y66.145 E.03611
G1 X24.446 Y65.812 E.0361
G1 X25.125 Y65.59 E.03606
G1 X25.808 Y65.49 E.03484
G1 X26.541 Y65.503 E.03701
G1 X27.249 Y65.641 E.03641
G1 X27.917 Y65.896 E.03609
G1 X28.532 Y66.259 E.03605
G1 X29.078 Y66.722 E.03614
G1 X29.537 Y67.27 E.03608
G1 X29.894 Y67.883 E.03581
M204 S1000
G1 X29.358 Y68.168 F10800
M204 S800
;TYPE:External perimeter
G1 F1200
G1 X29.575 Y68.759 E.03178
G1 X29.682 Y69.357 E.03067
G1 X29.686 Y69.978 E.03135
G1 X29.588 Y70.578 E.03069
G1 X29.388 Y71.157 E.03092
G1 X29.093 Y71.693 E.03088
G1 X28.712 Y72.172 E.0309
G1 X28.255 Y72.58 E.03092
G1 X27.736 Y72.905 E.03091
G1 X27.17 Y73.137 E.03088
G1 X26.573 Y73.27 E.03087
G1 X25.961 Y73.3 E.03093
G1 X25.353 Y73.227 E.03091
G1 X24.767 Y73.052 E.03087
G1 X24.218 Y72.78 E.03093
G1 X23.723 Y72.42 E.0309
G1 X23.297 Y71.981 E.03088
G1 X22.95 Y71.476 E.03093
G1 X22.694 Y70.92 E.0309
G1 X22.536 Y70.329 E.03088
G1 X22.479 Y69.719 E.03093
G1 X22.527 Y69.109 E.03089
G1 X22.677 Y68.515 E.03093
G1 X22.925 Y67.956 E.03087
G1 X23.264 Y67.446 E.03091
G1 X23.685 Y67.001 E.03092
G1 X24.174 Y66.634 E.03086
G1 X24.719 Y66.354 E.03093
G1 X25.303 Y66.171 E.03089
G1 X25.885 Y66.092 E.02965
G1 X26.519 Y66.11 E.03202
G1 X27.121 Y66.235 E.03104
G1 X27.691 Y66.459 E.03091
G1 X28.214 Y66.776 E.03087
G1 X28.676 Y67.177 E.03088
G1 X29.064 Y67.651 E.03092
G1 X29.314 Y68.09 E.0255
M204 S1000
G1 X29.956 Y68.221 F10800
;WIPE_START
G1 F8640
G1 X29.575 Y68.759 E-.16581
G1 X29.682 Y69.357 E-.14027
G1 X29.686 Y69.978 E-.14339
G1 X29.588 Y70.578 E-.14038
G1 X29.388 Y71.157 E-.14144
G1 X29.093 Y71.693 E-.14127
G1 X28.749 Y72.125 E-.12744
;WIPE_END
G1 Z.4 F720
G1 X25.322 Y75.014 F10800
G1 Z.2 F720
G1 E1 F1500
M204 S800
;TYPE:Perimeter
;WIDTH:0.622463
G1 F1200
G1 X25.223 Y75.03 E.00483
;WIDTH:0.649999
G1 X24.976 Y75.069 E.01262
G1 X24.503 Y75.368 E.02825
G1 X24.223 Y75.718 E.02263
G1 X24.114 Y75.951 E.01298
G1 X24.023 Y76.37 E.02164
G1 X24.071 Y76.872 E.02546
G1 X29.349 Y96.573 E1.02955
G1 X29.349 Y112.275 E.79262
;WIDTH:0.656447
G1 X29.34 Y113.049 E.03949
G1 X29.28 Y112.881 E.0091
G1 X29.006 Y112.365 E.0298
;WIDTH:0.649999
G1 X28.657 Y111.898 E.02943
G1 X28.234 Y111.497 E.02942
G1 X27.75 Y111.173 E.0294
G1 X27.217 Y110.935 E.02947
G1 X26.652 Y110.791 E.02943
G1 X26.016 Y110.747 E.03218
G1 X25.491 Y110.797 E.02662
G1 X24.927 Y110.946 E.02945
G1 X24.397 Y111.189 E.02943
G1 X23.916 Y111.518 E.02942
G1 X23.497 Y111.924 E.02945
G1 X23.153 Y112.394 E.0294
;WIDTH:0.653392
G1 X22.833 Y113.071 E.03801
G1 X22.828 Y112.576 E.02513
;WIDTH:0.649999
G1 X22.828 Y97.631 E.75441
G1 X22.776 Y97.238 E.02001
G1 X17.965 Y79.285 E.93822
G1 X20.692 Y69.461 E.51466
;WIDTH:0.648407
G1 X20.755 Y69.176 E.0147
;WIDTH:0.617355
G1 X20.818 Y68.891 E.01394
;WIDTH:0.586303
G1 X20.975 Y68.299 E.02767
;WIDTH:0.570554
G1 X21.16 Y67.773 E.02446
;WIDTH:0.558001
G1 X21.556 Y66.968 E.03842
G1 X22.081 Y66.241 E.03841
G1 X22.723 Y65.614 E.03843
G1 X23.46 Y65.104 E.03839
G1 X24.274 Y64.725 E.03846
G1 X25.14 Y64.49 E.03843
;WIDTH:0.560097
G1 X25.996 Y64.404 E.037
G1 X26.927 Y64.471 E.04014
;WIDTH:0.558001
G1 X27.798 Y64.688 E.03844
G1 X28.619 Y65.049 E.03841
G1 X29.368 Y65.543 E.03843
G1 X30.022 Y66.157 E.03842
G1 X30.563 Y66.873 E.03844
G1 X30.975 Y67.67 E.03843
G1 X31.247 Y68.524 E.03839
;WIDTH:0.561369
G1 X31.369 Y69.268 E.0325
G1 X31.37 Y69.409 E.00608
;WIDTH:0.558487
G1 X31.341 Y70.314 E.03882
;WIDTH:0.557999
G1 X31.162 Y71.189 E.03825
G1 X30.836 Y72.024 E.03839
G1 X30.374 Y72.793 E.03842
G1 X29.789 Y73.473 E.03842
G1 X29.097 Y74.044 E.03842
G1 X28.318 Y74.49 E.03845
G1 X27.475 Y74.797 E.03842
;WIDTH:0.558335
G1 X26.597 Y74.959 E.03826
;WIDTH:0.558945
G1 X26.033 Y74.984 E.02422
;WIDTH:0.594927
G1 X25.47 Y74.991 E.02584
;WIDTH:0.622463
G1 X25.411 Y75 E.00288
M204 S1000
;WIPE_START
G1 F8640
G1 X25.223 Y75.03 E-.04396
G1 X24.976 Y75.069 E-.05774
G1 X24.503 Y75.368 E-.12921
G1 X24.223 Y75.718 E-.10349
G1 X24.114 Y75.951 E-.0594
G1 X24.023 Y76.37 E-.099
G1 X24.071 Y76.872 E-.11644
G1 X24.509 Y78.507 E-.39076
;WIPE_END
G1 Z.4 F720
G1 X25.023 Y118.067 F10800
G1 Z.2 F720
G1 E1 F1500
M204 S800
;WIDTH:0.649999
G1 F1200
G1 X25.414 Y118.168 E.02039
G1 X26.097 Y118.225 E.0346
G1 X26.605 Y118.195 E.02569
G1 X27.246 Y118.059 E.03308
G1 X27.746 Y117.869 E.027
G1 X28.346 Y117.536 E.03464
G1 X28.742 Y117.228 E.02532
G1 X28.742 Y121.135 E.19722
G1 X28.346 Y120.826 E.02536
G1 X27.746 Y120.493 E.03464
G1 X27.099 Y120.266 E.03461
G1 X26.605 Y120.167 E.02543
G1 X26.048 Y120.14 E.02815
G1 X25.414 Y120.195 E.03212
G1 X24.953 Y120.304 E.02391
G1 X24.415 Y120.5 E.0289
G1 X23.817 Y120.836 E.03462
G1 X23.435 Y121.136 E.02452
G1 X23.435 Y117.227 E.19732
G1 X23.555 Y117.333 E.00808
G1 X24.124 Y117.715 E.03459
G1 X24.75 Y117.997 E.03466
G1 X24.936 Y118.045 E.0097
M204 S1000
G1 X25.171 Y117.481 F10800
M204 S800
G1 F1200
G1 X25.491 Y117.566 E.01671
G1 X26.071 Y117.618 E.0294
G1 X26.653 Y117.572 E.02947
G1 X27.217 Y117.428 E.02938
G1 X27.75 Y117.19 E.02947
G1 X28.234 Y116.866 E.0294
G1 X28.657 Y116.465 E.02942
G1 X29.006 Y115.998 E.02943
;WIDTH:0.658867
G1 X29.336 Y115.335 E.03793
G1 X29.349 Y115.761 E.02183
;WIDTH:0.649999
G1 X29.349 Y122.275 E.32882
;WIDTH:0.656449
G1 X29.34 Y123.049 E.03949
G1 X29.165 Y122.649 E.02227
;WIDTH:0.649999
G1 X28.862 Y122.151 E.02943
G1 X28.479 Y121.712 E.02941
G1 X28.027 Y121.343 E.02945
G1 X27.52 Y121.057 E.02938
G1 X26.971 Y120.86 E.02944
G1 X26.379 Y120.758 E.03032
G1 X25.79 Y120.758 E.02973
G1 X25.239 Y120.851 E.02821
G1 X24.689 Y121.042 E.02939
G1 X24.178 Y121.324 E.02946
G1 X23.723 Y121.688 E.02941
G1 X23.336 Y122.124 E.02943
G1 X23.027 Y122.619 E.02946
G1 X22.828 Y123.104 E.02646
G1 X22.828 Y115.262 E.39585
G1 X22.893 Y115.447 E.0099
G1 X23.153 Y115.969 E.02944
G1 X23.497 Y116.439 E.0294
G1 X23.916 Y116.845 E.02945
G1 X24.398 Y117.173 E.02943
G1 X24.927 Y117.416 E.02939
G1 X25.084 Y117.458 E.0082
M204 S1000
G1 X25.298 Y116.891 F10800
M204 S800
G1 F1200
G1 X24.962 Y116.778 E.01789
G1 X24.539 Y116.55 E.02426
G1 X24.161 Y116.254 E.02424
G1 X23.839 Y115.899 E.02419
G1 X23.581 Y115.494 E.02424
;WIDTH:0.69785
G1 X23.491 Y115.31 E.01115
;WIDTH:0.7457
G1 X23.4 Y115.127 E.01194
;WIDTH:0.793551
G1 X23.31 Y114.943 E.01278
;WIDTH:0.841401
G1 X23.22 Y114.76 E.01354
;WIDTH:0.880406
G1 X23.172 Y114.593 E.0121
G1 X23.151 Y114.095 E.03471
;WIDTH:0.901452
G1 X23.191 Y113.595 E.03581
G1 X23.256 Y113.474 E.00981
;WIDTH:0.859544
G1 X23.321 Y113.353 E.00933
;WIDTH:0.817635
G1 X23.386 Y113.232 E.00885
;WIDTH:0.775726
G1 X23.451 Y113.111 E.00837
;WIDTH:0.733817
G1 X23.516 Y112.99 E.00789
;WIDTH:0.691908
G1 X23.581 Y112.869 E.00741
;WIDTH:0.649999
G1 X23.936 Y112.344 E.03199
G1 X24.277 Y112.006 E.02424
G1 X24.671 Y111.731 E.02425
G1 X25.105 Y111.527 E.02421
G1 X25.568 Y111.399 E.02425
G1 X26.011 Y111.354 E.02248
G1 X26.525 Y111.384 E.02599
G1 X26.991 Y111.498 E.02422
G1 X27.431 Y111.689 E.02421
G1 X27.833 Y111.952 E.02425
G1 X28.185 Y112.279 E.02425
G1 X28.476 Y112.661 E.02424
;WIDTH:0.699115
G1 X28.61 Y112.897 E.01481
;WIDTH:0.748231
G1 X28.743 Y113.133 E.01589
;WIDTH:0.797347
G1 X28.877 Y113.369 E.01702
;WIDTH:0.83342
G1 X28.909 Y113.42 E.00396
;WIDTH:0.869492
G1 X28.941 Y113.471 E.00414
;WIDTH:0.905564
G1 X28.972 Y113.521 E.00422
G1 X29.023 Y114.019 E.03591
;WIDTH:0.877737
G1 X29.014 Y114.517 E.03457
;WIDTH:0.906048
G1 X28.972 Y114.845 E.02373
G1 X28.918 Y114.932 E.00735
;WIDTH:0.856612
G1 X28.864 Y115.018 E.00687
;WIDTH:0.807176
G1 X28.811 Y115.105 E.00647
;WIDTH:0.75774
G1 X28.757 Y115.191 E.00604
;WIDTH:0.708304
G1 X28.703 Y115.278 E.00567
;WIDTH:0.658867
G1 X28.39 Y115.83 E.0325
;WIDTH:0.649999
G1 X28.078 Y116.195 E.02424
G1 X27.709 Y116.502 E.02423
G1 X27.294 Y116.743 E.02422
G1 X26.843 Y116.909 E.02426
G1 X26.449 Y116.991 E.02031
G1 X25.924 Y117.009 E.02652
G1 X25.383 Y116.92 E.02768
M204 S1000
G1 X25.327 Y116.25 F10800
M204 S800
;TYPE:External perimeter
G1 F1200
G1 X24.944 Y116.089 E.02097
G1 X24.599 Y115.834 E.02166
G1 X24.342 Y115.559 E.019
G1 X24.134 Y115.244 E.01905
G1 X23.982 Y114.898 E.01908
G1 X23.892 Y114.532 E.01903
G1 X23.864 Y114.156 E.01903
G1 X23.9 Y113.78 E.01907
G1 X24 Y113.416 E.01906
G1 X24.159 Y113.074 E.01904
G1 X24.374 Y112.764 E.01904
G1 X24.638 Y112.494 E.01906
G1 X24.944 Y112.273 E.01905
G1 X25.283 Y112.107 E.01905
G1 X25.645 Y112.001 E.01904
G1 X25.992 Y111.96 E.01764
G1 X26.397 Y111.978 E.02046
G1 X26.765 Y112.062 E.01905
G1 X27.113 Y112.206 E.01901
G1 X27.432 Y112.408 E.01906
G1 X27.713 Y112.661 E.01909
G1 X27.946 Y112.957 E.01902
G1 X28.126 Y113.288 E.01902
M73 P1 R34
G1 X28.248 Y113.646 E.01909
G1 X28.308 Y114.019 E.01907
G1 X28.303 Y114.395 E.01898
G1 X28.235 Y114.767 E.01909
G1 X28.105 Y115.121 E.01904
G1 X27.917 Y115.448 E.01904
G1 X27.677 Y115.739 E.01904
G1 X27.391 Y115.985 E.01904
G1 X27.067 Y116.179 E.01906
G1 X26.715 Y116.316 E.01907
G1 X26.372 Y116.389 E.0177
G1 X25.944 Y116.4 E.02161
G1 X25.486 Y116.317 E.0235
G1 X25.41 Y116.285 E.00416
M204 S1000
G1 X25.01 Y116.518 F10800
;WIPE_START
G1 F8640
G1 X24.944 Y116.089 E-.11673
G1 X24.599 Y115.834 E-.09906
G1 X24.342 Y115.559 E-.08691
G1 X24.134 Y115.244 E-.08716
G1 X23.982 Y114.898 E-.08726
G1 X23.892 Y114.532 E-.08703
G1 X23.864 Y114.156 E-.08706
G1 X23.9 Y113.78 E-.08722
G1 X24 Y113.416 E-.08716
G1 X24.159 Y113.074 E-.08709
G1 X24.374 Y112.764 E-.08711
G1 X24.375 Y112.763 E-.00021
;WIPE_END
G1 Z.4 F720
G1 X23.435 Y127.227 F10800
G1 Z.2 F720
G1 E1 F1500
M204 S800
;TYPE:Perimeter
G1 F1200
G1 X23.817 Y127.526 E.02449
G1 X24.415 Y127.862 E.03462
G1 X25.061 Y128.092 E.03461
G1 X25.737 Y128.209 E.03463
G1 X26.423 Y128.211 E.03463
G1 X27.099 Y128.096 E.03461
G1 X27.746 Y127.869 E.03461
G1 X28.346 Y127.536 E.03464
G1 X28.742 Y127.228 E.02532
G1 X28.742 Y142.713 E.78166
G1 X28.618 Y142.753 E.00658
G1 X28.187 Y143.171 E.03031
G1 X28.057 Y143.36 E.01158
G1 X27.829 Y143.872 E.02829
G1 X27.742 Y144.472 E.0306
G1 X27.742 Y146.004 E.07733
G1 X27.099 Y145.778 E.0344
M73 P2 R34
