; generated by PrusaSlicer 2.6.1+win64 on 2023-11-11 at 22:53:37 UTC

; 

; external perimeters extrusion width = 0.61mm
; perimeters extrusion width = 0.65mm
; infill extrusion width = 0.70mm
; solid infill extrusion width = 0.65mm
; top infill extrusion width = 0.60mm
; support material extrusion width = 0.55mm
; first layer extrusion width = 0.65mm

M73 P0 R10
M201 X9000 Y9000 Z500 E10000 ; sets maximum accelerations, mm/sec^2
M203 X500 Y500 Z12 E120 ; sets maximum feedrates, mm / sec
M204 S2000 T1500 ; sets acceleration (S) and retract acceleration (R), mm/sec^2
M205 X10.00 Y10.00 Z0.20 E4.50 ; sets the jerk limits, mm/sec
M205 S0 T0 ; sets the minimum extruding and travel feed rate, mm/sec
;TYPE:Custom
M862.3 P "MK2.5S" ; printer model check
M862.1 P0.6 ; nozzle diameter check
M115 U3.11.0 ; tell printer latest fw version
G90 ; use absolute coordinates
M83 ; extruder relative mode
M104 S230 ; set extruder temp
M140 S85 ; set bed temp
M190 S85 ; wait for bed temp
M109 S230 ; wait for extruder temp
G28 W ; home all without mesh bed level
G80 ; mesh bed leveling

G1 Z0.2 F720
G1 Y-3 F1000 ; go outside print area
G92 E0
G1 X60 E9 F1000 ; intro line
G1 X100 E12.5 F1000 ; intro line

G92 E0
G21 ; set units to millimeters
G90 ; use absolute coordinates
M83 ; use relative distances for extrusion
M900 K0.04 ; Filament gcode LA 1.5
M900 K24 ; Filament gcode LA 1.0
M107
;LAYER_CHANGE
;Z:0.2
;HEIGHT:0.2
;BEFORE_LAYER_CHANGE
G92 E0.0
;0.2


G1 E-1 F2100
G1 Z.2 F720
;AFTER_LAYER_CHANGE
;0.2
G1 Z.4
G1 X113.762 Y89.473 F10800
G1 Z.2 F720
M73 P1 R10
G1 E1 F1500
M204 S800
;TYPE:Skirt/Brim
;WIDTH:0.65
G1 F1200
G1 X114.432 Y88.71 E.05126
G1 X114.924 Y88.356 E.0306
G1 X116.517 Y87.678 E.08739
G1 X117.921 Y87.282 E.07364
G1 X119.312 Y87.046 E.07122
G1 X121.094 Y86.952 E.09008
G1 X122.271 Y87.02 E.05951
G1 X123.712 Y87.244 E.07361
G1 X125.121 Y87.621 E.07363
G1 X126.481 Y88.146 E.07359
G1 X128.017 Y88.958 E.0877
G1 X129.218 Y89.786 E.07364
G1 X130.323 Y90.738 E.07363
G1 X131.138 Y91.591 E.05955
G1 X131.631 Y92.263 E.04207
G1 X137.586 Y102.993 E.61946
G1 X137.914 Y104.258 E.06597
G1 X137.914 Y120.445 E.8171
G1 X137.521 Y121.82 E.07219
G1 X136.463 Y122.782 E.07218
G1 X135.307 Y123.052 E.05992
G1 X125.307 Y123.052 E.50479
G1 X123.931 Y122.66 E.07222
G1 X122.964 Y121.59 E.0728
G1 X112.351 Y99.875 E1.22006
G1 X112.114 Y98.35 E.0779
G1 X113.243 Y90.745 E.3881
G1 X113.41 Y90.162 E.03061
G1 X113.721 Y89.553 E.03452
M204 S1000
; printing object lever_index_bump.STL id:0 copy 0
;WIPE_START
G1 F8640
G1 X114.432 Y88.71 E-.25464
G1 X114.924 Y88.356 E-.13995
G1 X116.517 Y87.678 E-.39976
G1 X117.374 Y87.436 E-.20565
;WIPE_END
G1 Z.4 F720
G1 X133.568 Y115.971 F10800
G1 Z.2 F720
G1 E1 F1500
M204 S800
;TYPE:Perimeter
;WIDTH:0.649999
G1 F1200
G1 X133.568 Y118.706 E.13806
G1 X132.007 Y118.706 E.0788
G1 X131.372 Y118.725 E.03207
;WIDTH:0.611721
G1 X131.063 Y118.741 E.01463
;WIDTH:0.580197
G1 X130.754 Y118.757 E.01382
;WIDTH:0.548673
G1 X130.146 Y118.763 E.02557
;WIDTH:0.575685
G1 X129.537 Y118.743 E.02699
;WIDTH:0.612842
G1 X129.229 Y118.724 E.01462
;WIDTH:0.649999
G1 X128.92 Y118.706 E.01562
G1 X127.046 Y118.706 E.0946
G1 X127.046 Y115.971 E.13806
M73 P2 R10
G1 X127.204 Y116.371 E.02171
G1 X127.494 Y116.868 E.02905
G1 X127.863 Y117.309 E.02903
G1 X128.3 Y117.683 E.02903
G1 X128.794 Y117.978 E.02904
G1 X129.336 Y118.17 E.02903
;WIDTH:0.612567
G1 X129.618 Y118.212 E.0135
;WIDTH:0.580619
G1 X129.901 Y118.254 E.01279
;WIDTH:0.548671
G1 X130.468 Y118.269 E.02385
;WIDTH:0.576598
G1 X131.041 Y118.213 E.02555
;WIDTH:0.613299
G1 X131.314 Y118.147 E.01332
;WIDTH:0.649999
G1 X131.588 Y118.082 E.01422
G1 X132.102 Y117.823 E.02905
G1 X132.565 Y117.483 E.029
G1 X132.966 Y117.07 E.02906
G1 X133.292 Y116.596 E.02904
G1 X133.531 Y116.053 E.02995
M204 S1000
;WIPE_START
G1 F8640
G1 X133.568 Y118.706 E-.61264
G1 X132.007 Y118.706 E-.36044
G1 X131.89 Y118.709 E-.02692
;WIPE_END
G1 Z.4 F720
G1 X127.748 Y117.972 F10800
G1 Z.2 F720
G1 E1 F1500
M204 S800
;WIDTH:0.750614
G1 F1200
G1 X127.659 Y117.972 E.00524
G1 X127.615 Y118.049 E.00522
G1 X127.659 Y118.125 E.00517
G1 X127.748 Y118.125 E.00524
G1 X127.792 Y118.049 E.00517
M204 S1000
;WIPE_START
G1 F8640
G1 X127.748 Y118.125 E-.02028
G1 X127.659 Y118.125 E-.02055
G1 X127.615 Y118.049 E-.02028
G1 X127.659 Y117.972 E-.02048
G1 X127.748 Y117.972 E-.02055
;WIPE_END
G1 E-.89786 F2100
G1 Z.4 F720
G1 X132.954 Y117.972 F10800
G1 Z.2 F720
G1 E1 F1500
M204 S800
G1 F1200
G1 X132.866 Y117.972 E.00518
G1 X132.822 Y118.049 E.00522
G1 X132.866 Y118.125 E.00517
G1 X132.954 Y118.125 E.00518
G1 X132.999 Y118.049 E.0052
M204 S1000
;WIPE_START
G1 F8640
G1 X132.954 Y118.125 E-.02039
G1 X132.866 Y118.125 E-.02032
G1 X132.822 Y118.049 E-.02028
G1 X132.866 Y117.972 E-.02048
G1 X132.954 Y117.972 E-.02032
;WIPE_END
G1 E-.89821 F2100
G1 Z.4 F720
G1 X126.373 Y104.381 F10800
G1 Z.2 F720
G1 E1 F1500
M204 S800
;WIDTH:0.649999
G1 F1200
G1 X126.368 Y104.626 E.01237
G1 X126.435 Y105.171 E.02772
G1 X126.643 Y105.903 E.03841
G1 X126.942 Y106.502 E.03379
G1 X127.338 Y107.041 E.03376
G1 X127.819 Y107.505 E.03374
G1 X128.253 Y107.808 E.02672
G1 X128.694 Y108.044 E.02525
G1 X129.325 Y108.265 E.03375
G1 X129.985 Y108.375 E.03378
G1 X130.654 Y108.373 E.03377
G1 X131.346 Y108.248 E.0355
G1 X131.943 Y108.033 E.03203
G1 X132.526 Y107.705 E.03377
G1 X132.96 Y107.357 E.02808
G1 X132.958 Y111.522 E.21024
G1 X132.41 Y111.109 E.03464
G1 X131.8 Y110.795 E.03463
G1 X131.145 Y110.592 E.03462
G1 X130.465 Y110.505 E.03461
G1 X129.939 Y110.515 E.02656
G1 X129.348 Y110.617 E.03027
G1 X128.813 Y110.795 E.02846
G1 X128.326 Y111.039 E.0275
G1 X127.901 Y111.321 E.02575
G1 X127.396 Y111.785 E.03462
G1 X126.93 Y112.413 E.03947
G1 X119.524 Y101.623 E.66062
G1 X124.117 Y102.645 E.23752
G1 X124.575 Y102.719 E.02342
G1 X125.645 Y102.844 E.05438
G1 X126.036 Y102.797 E.01988
G1 X126.605 Y103.097 E.03247
G1 X126.475 Y103.5 E.02138
G1 X126.375 Y104.291 E.04025
M204 S1000
G1 X126.993 Y104.333 F10800
M204 S800
G1 F1200
G1 X126.973 Y104.574 E.01221
G1 X127.038 Y105.095 E.0265
G1 X127.215 Y105.701 E.03187
G1 X127.472 Y106.206 E.0286
G1 X127.81 Y106.659 E.02853
G1 X128.22 Y107.049 E.02856
G1 X128.75 Y107.399 E.03206
G1 X129.283 Y107.624 E.0292
G1 X129.847 Y107.753 E.02921
G1 X130.384 Y107.783 E.02715
G1 X130.883 Y107.732 E.02532
G1 X131.431 Y107.587 E.02861
G1 X131.945 Y107.352 E.02853
G1 X132.413 Y107.033 E.02859
G1 X132.82 Y106.64 E.02856
G1 X133.155 Y106.184 E.02856
G1 X133.408 Y105.677 E.0286
G1 X133.583 Y105.013 E.03466
;WIDTH:0.625979
G1 X133.58 Y105.134 E.00587
;WIDTH:0.649999
G1 X133.568 Y113.114 E.40282
;WIDTH:0.657153
G1 X133.556 Y113.626 E.02616
G1 X133.49 Y113.444 E.00989
;WIDTH:0.649999
G1 X133.269 Y112.908 E.02927
G1 X132.958 Y112.418 E.0293
G1 X132.566 Y111.99 E.0293
G1 X132.107 Y111.635 E.02929
G1 X131.593 Y111.366 E.02928
G1 X131.04 Y111.19 E.02929
G1 X130.465 Y111.112 E.02929
G1 X129.885 Y111.135 E.0293
G1 X129.318 Y111.258 E.02929
G1 X128.781 Y111.477 E.02927
G1 X128.29 Y111.786 E.02928
G1 X127.86 Y112.176 E.0293
G1 X127.504 Y112.634 E.02928
G1 X127.209 Y113.212 E.03276
;WIDTH:0.654406
G1 X127.009 Y113.861 E.03453
G1 X126.971 Y113.632 E.0118
G1 X126.78 Y113.266 E.02099
;WIDTH:0.649999
G1 X118.152 Y100.696 E.76961
G1 X124.356 Y102.073 E.32079
G1 X125.366 Y102.222 E.05154
M73 P3 R10
G1 X125.786 Y102.225 E.0212
G1 X126.204 Y102.125 E.0217
G1 X126.471 Y102.343 E.0174
G1 X126.93 Y102.581 E.0261
G1 X127.442 Y102.744 E.02712
G1 X127.196 Y103.245 E.02817
G1 X127.038 Y103.795 E.02889
G1 X127 Y104.243 E.0227
M204 S1000
;WIPE_START
G1 F8640
G1 X126.973 Y104.574 E-.07668
G1 X127.038 Y105.095 E-.12123
G1 X127.215 Y105.701 E-.14577
G1 X127.472 Y106.206 E-.13084
G1 X127.81 Y106.659 E-.13051
G1 X128.22 Y107.049 E-.13066
G1 X128.75 Y107.399 E-.14666
G1 X129.219 Y107.597 E-.11765
;WIPE_END
G1 Z.4 F720
G1 X134.175 Y112.749 F10800
G1 Z.2 F720
G1 E1 F1500
M204 S800
G1 F1200
G1 X134.175 Y113.114 E.01842
;WIDTH:0.657153
G1 X134.171 Y113.626 E.02615
;WIDTH:0.705632
G1 X134.147 Y113.742 E.00653
;WIDTH:0.754111
G1 X134.123 Y113.857 E.00695
;WIDTH:0.80259
G1 X134.098 Y113.973 E.0075
;WIDTH:0.851069
G1 X134.074 Y114.089 E.00796
;WIDTH:0.899547
G1 X134.05 Y114.205 E.00844
G1 X134.057 Y114.381 E.01255
;WIDTH:0.884978
G1 X134.067 Y114.942 E.03929
;WIDTH:0.865613
G1 X134.073 Y115.506 E.03858
;WIDTH:0.852705
G1 X134.094 Y115.621 E.00787
;WIDTH:0.812164
G1 X134.114 Y115.736 E.00747
;WIDTH:0.771623
G1 X134.134 Y115.851 E.00707
;WIDTH:0.731082
G1 X134.154 Y115.966 E.00668
;WIDTH:0.690541
G1 X134.175 Y116.081 E.0063
;WIDTH:0.649999
G1 X134.175 Y119.313 E.16315
G1 X126.439 Y119.313 E.3905
G1 X126.439 Y116.081 E.16315
;WIDTH:0.690541
G1 X126.459 Y115.966 E.00629
;WIDTH:0.731082
G1 X126.479 Y115.851 E.00668
;WIDTH:0.771624
G1 X126.5 Y115.736 E.00708
;WIDTH:0.812165
G1 X126.52 Y115.621 E.00747
;WIDTH:0.852706
G1 X126.54 Y115.506 E.00786
;WIDTH:0.875727
G1 X126.548 Y114.702 E.05568
;WIDTH:0.868122
G1 X126.547 Y114.125 E.03959
;WIDTH:0.866023
G1 X126.493 Y114.022 E.00796
;WIDTH:0.822819
G1 X126.44 Y113.919 E.00751
;WIDTH:0.779614
G1 X126.386 Y113.816 E.00712
;WIDTH:0.736409
G1 X126.333 Y113.713 E.00668
;WIDTH:0.693204
G1 X126.279 Y113.609 E.00634
;WIDTH:0.649999
G1 X116.752 Y99.752 E.84886
G1 X124.38 Y101.46 E.39459
G1 X125.612 Y101.631 E.06279
G1 X125.976 Y101.564 E.01868
G1 X126.348 Y101.352 E.02161
G1 X126.653 Y101.719 E.02409
G1 X126.87 Y101.872 E.0134
G1 X127.401 Y102.111 E.02939
G1 X128.573 Y102.376 E.06065
G1 X128.451 Y102.469 E.00774
G1 X128.113 Y102.829 E.02493
G1 X127.79 Y103.389 E.03263
G1 X127.64 Y103.871 E.02548
G1 X127.578 Y104.522 E.03301
G1 X127.64 Y105.019 E.02528
G1 X127.788 Y105.499 E.02536
G1 X128.046 Y105.981 E.0276
G1 X128.39 Y106.39 E.02698
G1 X128.879 Y106.768 E.0312
G1 X129.311 Y106.983 E.02436
G1 X129.768 Y107.118 E.02405
G1 X130.245 Y107.171 E.02423
G1 X130.73 Y107.139 E.02454
G1 X131.253 Y107.007 E.02723
G1 X131.672 Y106.81 E.02337
G1 X132.052 Y106.545 E.02339
G1 X132.382 Y106.22 E.02338
G1 X132.652 Y105.844 E.02337
G1 X132.855 Y105.427 E.02341
G1 X132.984 Y104.982 E.02339
G1 X133.035 Y104.519 E.02351
G1 X133.005 Y104.052 E.02362
G1 X132.897 Y103.629 E.02204
G1 X132.752 Y103.3 E.01815
G1 X133.186 Y103.406 E.02255
G1 X134.175 Y104.653 E.08034
G1 X134.175 Y104.855 E.0102
G1 X134.175 Y112.659 E.39394
M204 S1000
;WIPE_START
G1 F8640
G1 X134.175 Y113.114 E-.10506
G1 X134.171 Y113.626 E-.11823
G1 X134.147 Y113.742 E-.02735
G1 X134.123 Y113.857 E-.02713
G1 X134.098 Y113.973 E-.0274
G1 X134.074 Y114.089 E-.02735
G1 X134.05 Y114.205 E-.02735
G1 X134.057 Y114.381 E-.04067
G1 X134.067 Y114.942 E-.12956
G1 X134.073 Y115.506 E-.13024
G1 X134.094 Y115.621 E-.02699
G1 X134.114 Y115.736 E-.02695
G1 X134.134 Y115.851 E-.02695
G1 X134.154 Y115.966 E-.02695
G1 X134.175 Y116.081 E-.02699
G1 X134.175 Y116.968 E-.20483
;WIPE_END
G1 Z.4 F720
G1 X133.592 Y104.855 F10800
G1 Z.2 F720
G1 E1 F1500
M204 S800
;WIDTH:0.61982
G1 F1200
G1 X133.583 Y105.013 E.00759
M204 S1000
;WIPE_START
G1 F8640
G1 X133.592 Y104.855 E-.03654
;WIPE_END
G1 E-.96346 F2100
G1 Z.4 F720
G1 X126.035 Y100.19 F10800
G1 Z.2 F720
G1 E1 F1500
M204 S800
;TYPE:External perimeter
;WIDTH:0.619878
G1 F1200
G1 X126.219 Y100.365 E.01218
;WIDTH:0.649999
G1 X126.658 Y100.768 E.03008
G1 X127.092 Y101.297 E.03454
G1 X127.541 Y101.52 E.02531
G1 X128.827 Y101.804 E.06648
;WIDTH:0.659937
G1 X129.436 Y101.869 E.03142
;WIDTH:0.663114
G1 X130.007 Y101.912 E.02953
G1 X130.279 Y101.954 E.01419
;WIDTH:0.635747
G1 X130.551 Y101.995 E.01356
;WIDTH:0.637723
G1 X131.393 Y102.185 E.04269
;WIDTH:0.656298
G1 X132.765 Y102.678 E.07436
;WIDTH:0.649999
G1 X133.533 Y102.865 E.0399
G1 X134.782 Y104.441 E.10151
G1 X134.782 Y104.855 E.0209
G1 X134.782 Y119.92 E.76046
G1 X125.832 Y119.92 E.45179
G1 X125.832 Y114.125 E.29252
M73 P4 R10
G1 X125.778 Y113.953 E.0091
G1 X116.802 Y100.875 E.80069
G1 X115.927 Y99.674 E.07501
G1 X115.373 Y98.813 E.05168
G1 X116.066 Y98.877 E.03513
G1 X116.554 Y99.058 E.02627
G1 X117.038 Y99.204 E.02552
G1 X124.534 Y100.871 E.38763
G1 X125.543 Y101.021 E.05149
G1 X125.793 Y100.985 E.01275
G1 X126.088 Y100.775 E.01828
G1 X126.098 Y100.462 E.01581
;WIDTH:0.619878
G1 X126.055 Y100.277 E.00911
M204 S1000
;WIPE_START
G1 F8640
G1 X126.219 Y100.365 E-.04298
G1 X126.658 Y100.768 E-.1376
G1 X127.092 Y101.297 E-.158
G1 X127.541 Y101.52 E-.11576
G1 X128.827 Y101.804 E-.3041
G1 X129.436 Y101.869 E-.14142
G1 X129.868 Y101.902 E-.10014
;WIPE_END
G1 Z.4 F720
G1 X128.192 Y104.349 F10800
G1 Z.2 F720
G1 E1 F1500
M204 S800
;WIDTH:0.649999
G1 F1200
G1 X128.253 Y103.899 E.02292
G1 X128.405 Y103.507 E.02122
G1 X128.571 Y103.227 E.01643
G1 X128.819 Y102.952 E.01869
G1 X129.172 Y102.71 E.0216
;WIDTH:0.659937
G1 X129.474 Y102.587 E.01673
;WIDTH:0.663114
G1 X129.953 Y102.526 E.0249
G1 X130.194 Y102.537 E.01244
;WIDTH:0.635747
G1 X130.435 Y102.549 E.01189
;WIDTH:0.611237
G1 X130.971 Y102.663 E.0259
;WIDTH:0.636788
G1 X131.259 Y102.785 E.01544
;WIDTH:0.662338
G1 X131.546 Y102.908 E.01608
G1 X131.877 Y103.142 E.02088
;WIDTH:0.652487
G1 X132.155 Y103.473 E.02191
;WIDTH:0.649999
G1 X132.316 Y103.804 E.01858
G1 X132.401 Y104.109 E.01598
G1 X132.43 Y104.47 E.01828
G1 X132.396 Y104.829 E.0182
G1 X132.301 Y105.177 E.01821
G1 X132.149 Y105.504 E.0182
G1 X131.944 Y105.8 E.01818
G1 X131.691 Y106.057 E.0182
G1 X131.399 Y106.268 E.01819
G1 X131.075 Y106.426 E.0182
G1 X130.653 Y106.537 E.02203
G1 X130.062 Y106.556 E.02985
G1 X129.538 Y106.42 E.02733
G1 X129.064 Y106.169 E.02707
G1 X128.755 Y105.897 E.02078
G1 X128.532 Y105.614 E.01819
G1 X128.36 Y105.297 E.01821
G1 X128.242 Y104.942 E.01888
G1 X128.186 Y104.439 E.02555
M204 S1000
G1 X127.805 Y104.11 F10800
;WIPE_START
G1 F8640
G1 X128.253 Y103.899 E-.12564
G1 X128.405 Y103.507 E-.09708
G1 X128.571 Y103.227 E-.07516
G1 X128.819 Y102.952 E-.08551
G1 X129.172 Y102.71 E-.09882
G1 X129.474 Y102.587 E-.07529
G1 X129.953 Y102.526 E-.1115
G1 X130.194 Y102.537 E-.05571
G1 X130.435 Y102.549 E-.05572
G1 X130.971 Y102.663 E-.12653
G1 X131.259 Y102.785 E-.07222
G1 X131.342 Y102.821 E-.02082
;WIPE_END
G1 Z.4 F720
G1 X128.998 Y94.59 F10800
G1 Z.2 F720
G1 E1 F1500
M204 S800
;WIDTH:0.55292
G1 F1200
G1 X129.179 Y94.328 E.0135
G1 X129.236 Y93.979 E.015
G1 X129.131 Y93.66 E.01424
G1 X129.049 Y93.548 E.00589
G1 X128.178 Y92.644 E.05323
G1 X127.383 Y91.983 E.04384
G1 X126.427 Y91.34 E.04886
G1 X125.409 Y90.803 E.04881
G1 X124.339 Y90.378 E.04882
G1 X123.851 Y90.225 E.02169
G1 X123.229 Y90.069 E.02719
G1 X122.625 Y89.952 E.02609
G1 X122.093 Y89.88 E.02277
G1 X121.376 Y89.823 E.0305
G1 X120.12 Y89.84 E.05327
G1 X118.874 Y90.004 E.05329
G1 X117.653 Y90.312 E.0534
G1 X116.481 Y90.758 E.05318
G1 X116.226 Y90.95 E.01354
G1 X116.059 Y91.261 E.01497
G1 X116.041 Y91.527 E.01131
G1 X116.16 Y91.861 E.01504
G1 X116.313 Y92.035 E.00983
G1 X125.949 Y100.078 E.53227
M204 S1000
;WIPE_START
G1 F8640
G1 X125.894 Y100.024 E-.0178
G1 X122.627 Y97.3 E-.9822
;WIPE_END
G1 Z.4 F720
G1 X132.229 Y112.514 F10800
G1 Z.2 F720
G1 E1 F1500
M204 S800
;TYPE:Perimeter
;WIDTH:0.649999
G1 F1200
G1 X132.584 Y112.939 E.02795
G1 X132.811 Y113.356 E.02397
;WIDTH:0.699909
G1 X132.89 Y113.545 E.01119
;WIDTH:0.749819
G1 X132.968 Y113.734 E.01202
;WIDTH:0.799728
G1 X133.047 Y113.923 E.01289
;WIDTH:0.849638
G1 X133.125 Y114.112 E.01372
;WIDTH:0.899547
G1 X133.204 Y114.301 E.01459
G1 X133.246 Y114.852 E.03936
;WIDTH:0.885204
G1 X133.221 Y115.351 E.03499
G1 X133.172 Y115.449 E.00767
;WIDTH:0.838163
G1 X133.122 Y115.546 E.00722
;WIDTH:0.791122
G1 X133.073 Y115.644 E.00682
;WIDTH:0.744081
G1 X133.024 Y115.742 E.00639
;WIDTH:0.69704
G1 X132.974 Y115.839 E.00594
;WIDTH:0.649999
G1 X132.779 Y116.271 E.02393
G1 X132.515 Y116.664 E.0239
G1 X132.125 Y117.058 E.02798
G1 X131.809 Y117.291 E.01982
G1 X131.388 Y117.508 E.02391
G1 X130.937 Y117.652 E.0239
G1 X130.468 Y117.718 E.02391
G1 X129.994 Y117.706 E.02393
G1 X129.529 Y117.614 E.02393
G1 X129.086 Y117.446 E.02392
G1 X128.677 Y117.207 E.02391
G1 X128.314 Y116.903 E.0239
G1 X128.007 Y116.543 E.02388
G1 X127.764 Y116.136 E.02393
;WIDTH:0.690541
G1 X127.695 Y115.99 E.0087
;WIDTH:0.731082
G1 X127.626 Y115.843 E.00929
;WIDTH:0.771624
G1 X127.557 Y115.697 E.00978
