; generated by PrusaSlicer 2.4.2+win64 on 2022-05-10 at 07:56:29 UTC

; 

; external perimeters extrusion width = 0.45mm
; perimeters extrusion width = 0.45mm
; infill extrusion width = 0.45mm
; solid infill extrusion width = 0.45mm
; top infill extrusion width = 0.45mm
; support material extrusion width = 0.35mm
; first layer extrusion width = 0.42mm

M73 P0 R22
M107
;TYPE:Custom
M862.3 P "MK2.5S" ; printer model check
M862.1 P0.4 ; nozzle diameter check
M115 U3.9.1 ; tell printer latest fw version
G90 ; use absolute coordinates
M83  ; extruder relative mode
M104 S230 ; set extruder temp
M140 S85 ; set bed temp
M190 S85 ; wait for bed temp
M109 S230 ; wait for extruder temp
G28 W ; home all without mesh bed level
G80 ; mesh bed leveling
G1 Y-3.0 F1000.0 ; go outside print area
G92 E0.0
G1 X60.0 E9.0 F1000.0 ; intro line
G1 X100.0 E12.5 F1000.0 ; intro line
G92 E0.0
G21 ; set units to millimeters
G90 ; use absolute coordinates
M83 ; use relative distances for extrusion
M900 K0.08 ; Filament gcode LA 1.5
M900 K45 ; Filament gcode LA 1.0
M107
;LAYER_CHANGE
;Z:0.2
;HEIGHT:0.2
;BEFORE_LAYER_CHANGE
G92 E0.0
;0.2


M73 P0 R21
G1 E-1.4 F2100
G1 Z.2 F10800
;AFTER_LAYER_CHANGE
;0.2
G1 Z.4
G1 X112.964 Y96.496
G1 Z.2
G1 E1.4 F2100
M204 S1000
;TYPE:Skirt/Brim
;WIDTH:0.42
G1 F1200
G1 X114.858 Y94.307 E.09078
G1 X115.534 Y93.684 E.02881
G1 X118.282 Y91.883 E.10302
G1 X119.484 Y91.333 E.04145
G1 X122.251 Y90.521 E.09041
G1 X123.155 Y90.362 E.02876
G1 X126.834 Y90.361 E.11536
G1 X127.749 Y90.521 E.02913
G1 X130.516 Y91.333 E.09041
G1 X131.717 Y91.882 E.0414
G1 X134.457 Y93.676 E.10271
G1 X135.131 Y94.296 E.02871
G1 X137.028 Y96.483 E.09078
G1 X137.743 Y97.596 E.04145
G1 X139.078 Y100.587 E.10271
G1 X139.309 Y101.473 E.02871
G1 X139.723 Y104.338 E.09078
G1 X139.723 Y105.66 E.04145
G1 X139.229 Y108.898 E.10271
G1 X138.941 Y109.781 E.02913
G1 X137.743 Y112.404 E.09041
G1 X137.036 Y113.504 E.04098
G1 X135.142 Y115.693 E.09078
G1 X134.457 Y116.324 E.02918
G1 X131.372 Y118.307 E.11499
G1 X130.528 Y118.662 E.02871
G1 X127.75 Y119.479 E.09078
G1 X126.455 Y119.666 E.04103
G1 X123.166 Y119.639 E.10312
G1 X122.251 Y119.479 E.02913
G1 X119.484 Y118.667 E.09041
G1 X118.295 Y118.124 E.04098
G1 X115.543 Y116.324 E.10312
G1 X114.869 Y115.704 E.02871
G1 X112.972 Y113.517 E.09078
G1 X112.257 Y112.404 E.04145
G1 X110.922 Y109.413 E.10271
G1 X110.691 Y108.527 E.02871
G1 X110.277 Y105.662 E.09078
G1 X110.277 Y104.34 E.04145
G1 X110.771 Y101.102 E.10271
G1 X111.059 Y100.219 E.02913
G1 X112.257 Y97.596 E.09041
G1 X112.931 Y96.546 E.0391
G1 X113.245 Y96.748 F10800
G1 F1200
G1 X115.144 Y94.553 E.09098
G1 X115.781 Y93.969 E.02711
G1 X118.486 Y92.2 E.10135
G1 X119.591 Y91.695 E.03808
G1 X122.357 Y90.883 E.09041
G1 X123.208 Y90.736 E.02707
G1 X126.78 Y90.734 E.11199
G1 X127.643 Y90.883 E.02744
G1 X130.409 Y91.695 E.09041
G1 X131.513 Y92.199 E.03804
G1 X134.21 Y93.961 E.10102
G1 X134.846 Y94.544 E.02703
G1 X136.743 Y96.731 E.09078
G1 X137.4 Y97.752 E.03808
G1 X138.716 Y100.693 E.10102
G1 X138.936 Y101.526 E.02703
M73 P1 R21
G1 X139.35 Y104.392 E.09078
G1 X139.35 Y105.607 E.03808
G1 X138.867 Y108.792 E.10102
G1 X138.598 Y109.625 E.02744
G1 X137.4 Y112.248 E.09041
G1 X136.751 Y113.257 E.03763
G1 X134.856 Y115.447 E.09078
G1 X134.21 Y116.039 E.02748
G1 X131.215 Y117.964 E.11163
G1 X130.421 Y118.3 E.02703
G1 X127.644 Y119.117 E.09078
G1 X126.455 Y119.288 E.03767
G1 X123.22 Y119.266 E.10143
G1 X122.357 Y119.117 E.02744
G1 X119.591 Y118.305 E.09041
G1 X118.499 Y117.807 E.03763
G1 X115.79 Y116.039 E.10143
G1 X115.154 Y115.456 E.02703
G1 X113.257 Y113.269 E.09078
G1 X112.6 Y112.248 E.03808
G1 X111.284 Y109.307 E.10102
G1 X111.064 Y108.474 E.02703
G1 X110.65 Y105.608 E.09078
G1 X110.65 Y104.393 E.03808
G1 X111.06 Y101.539 E.09041
G1 X111.284 Y100.693 E.02744
G1 X112.6 Y97.752 E.10102
G1 X113.213 Y96.798 E.03554
; printing object spur_gear_servo.STL id:0 copy 0
;WIPE_START
G1 F8640
G1 X115.144 Y94.553 E-.68373
G1 X115.781 Y93.969 E-.19968
G1 X117.399 Y92.91 E-.44659
;WIPE_END
G1 E-.07 F2100
G1 Z.4 F10800
G1 X125.243 Y103.102
G1 Z.2
G1 E1.4 F2100
;TYPE:Support material
G1 F1200
G1 X125.56 Y103.17 E.01018
G1 X125.861 Y103.291 E.01018
G1 X126.138 Y103.462 E.01018
G1 X126.381 Y103.676 E.01018
G1 X126.585 Y103.929 E.01018
G1 X126.744 Y104.212 E.01018
G1 X126.852 Y104.518 E.01018
G1 X126.907 Y104.838 E.01018
G1 X126.907 Y105.162 E.01018
G1 X126.852 Y105.482 E.01018
G1 X126.744 Y105.788 E.01018
G1 X126.585 Y106.071 E.01018
G1 X126.381 Y106.324 E.01018
G1 X126.138 Y106.538 E.01018
G1 X125.861 Y106.709 E.01018
G1 X125.56 Y106.83 E.01018
G1 X125.243 Y106.898 E.01018
G1 X124.919 Y106.912 E.01018
G1 X124.597 Y106.87 E.01018
G1 X124.287 Y106.775 E.01018
G1 X123.997 Y106.629 E.01018
G1 X123.736 Y106.436 E.01018
G1 X123.511 Y106.202 E.01018
G1 X123.33 Y105.933 E.01018
G1 X123.196 Y105.637 E.01018
G1 X123.114 Y105.323 E.01018
G1 X123.087 Y105 E.01018
G1 X123.114 Y104.677 E.01018
G1 X123.196 Y104.363 E.01018
G1 X123.33 Y104.067 E.01018
G1 X123.511 Y103.798 E.01018
G1 X123.736 Y103.564 E.01018
G1 X123.997 Y103.371 E.01018
G1 X124.287 Y103.225 E.01018
G1 X124.597 Y103.13 E.01018
G1 X124.919 Y103.088 E.01018
G1 X125.187 Y103.1 E.0084
G1 X126.257 Y106.207 F10800
G1 F1200
G1 X126.257 Y104.062 E.06727
G1 X126.136 Y103.912 E.00606
G1 X125.935 Y103.735 E.00836
G1 X125.838 Y103.676 E.00358
G1 X125.838 Y106.324 E.08306
G1 X125.708 Y106.404 E.00478
G1 X125.419 Y106.513 E.00968
G1 X125.419 Y103.487 E.09487
G1 X125.2 Y103.44 E.00703
G1 X125 Y103.431 E.00627
G1 X125 Y106.569 E.09836
G1 X124.933 Y106.571 E.00209
G1 X124.581 Y106.511 E.01121
G1 X124.581 Y103.489 E.09473
G1 X124.414 Y103.541 E.00549
G1 X124.162 Y103.671 E.00888
G1 X124.162 Y106.329 E.08337
G1 X123.961 Y106.181 E.00785
G1 X123.743 Y105.939 E.0102
G1 X123.743 Y103.801 E.06702
;WIPE_START
G1 F8640
G1 X123.743 Y105.939 E-.49358
G1 X123.961 Y106.181 E-.07513
G1 X124.162 Y106.329 E-.05778
G1 X124.162 Y103.671 E-.61396
G1 X124.414 Y103.541 E-.06537
G1 X124.514 Y103.51 E-.02419
;WIPE_END
G1 E-.07 F2100
G1 Z.4 F10800
G1 X121.914 Y102.632
G1 Z.2
G1 E1.4 F2100
;TYPE:Perimeter
G1 F1200
G1 X121.968 Y102.552 E.00302
G1 X122.425 Y102.075 E.02072
G1 X122.957 Y101.682 E.02072
G1 X123.547 Y101.384 E.02072
G1 X124.179 Y101.191 E.02072
G1 X124.801 Y101.111 E.01967
G1 X125.488 Y101.133 E.02156
G1 X126.141 Y101.274 E.02093
G1 X126.754 Y101.52 E.02072
G1 X127.317 Y101.867 E.02072
G1 X127.813 Y102.304 E.02072
G1 X128.229 Y102.818 E.02072
G1 X128.551 Y103.395 E.02072
G1 X128.771 Y104.018 E.02072
G1 X128.883 Y104.67 E.02072
G1 X128.883 Y105.33 E.02072
G1 X128.771 Y105.982 E.02072
G1 X128.551 Y106.605 E.02072
G1 X128.229 Y107.182 E.02072
G1 X127.813 Y107.696 E.02072
G1 X127.317 Y108.133 E.02072
G1 X126.754 Y108.48 E.02072
G1 X126.172 Y108.713 E.01967
G1 X125.502 Y108.865 E.02156
G1 X124.835 Y108.893 E.02093
G1 X124.179 Y108.809 E.02072
G1 X123.547 Y108.616 E.02072
G1 X122.987 Y108.333 E.01967
G1 X122.43 Y107.93 E.02156
G1 X121.968 Y107.448 E.02093
G1 X121.598 Y106.9 E.02072
G1 X121.326 Y106.298 E.02072
G1 X121.159 Y105.659 E.02072
G1 X121.103 Y105 E.02072
G1 X121.156 Y104.375 E.01967
G1 X121.323 Y103.708 E.02156
G1 X121.598 Y103.1 E.02093
G1 X121.881 Y102.681 E.01582
G1 X122.307 Y102.743 F10800
G1 F1200
G1 X122.676 Y102.359 E.0167
G1 X123.155 Y102.004 E.01871
G1 X123.688 Y101.735 E.01871
G1 X124.259 Y101.561 E.01871
G1 X124.819 Y101.489 E.01771
G1 X125.442 Y101.509 E.01955
G1 X126.03 Y101.636 E.01886
G1 X126.584 Y101.858 E.01871
G1 X127.092 Y102.171 E.01871
G1 X127.54 Y102.566 E.01871
G1 X127.915 Y103.03 E.01871
G1 X128.206 Y103.551 E.01871
G1 X128.405 Y104.113 E.01871
G1 X128.506 Y104.702 E.01871
G1 X128.506 Y105.298 E.01871
G1 X128.405 Y105.887 E.01871
G1 X128.206 Y106.449 E.01871
G1 X127.915 Y106.97 E.01871
G1 X127.54 Y107.434 E.01871
G1 X127.092 Y107.829 E.01871
G1 X126.584 Y108.142 E.01871
G1 X126.06 Y108.352 E.01771
G1 X125.452 Y108.49 E.01955
G1 X124.851 Y108.515 E.01886
G1 X124.259 Y108.439 E.01871
G1 X123.688 Y108.265 E.01871
G1 X123.184 Y108.01 E.01771
G1 X122.679 Y107.645 E.01955
G1 X122.263 Y107.21 E.01886
G1 X121.928 Y106.716 E.01871
G1 X121.683 Y106.172 E.01871
G1 X121.532 Y105.595 E.01871
G1 X121.482 Y105 E.01871
G1 X121.53 Y104.437 E.01771
G1 X121.681 Y103.832 E.01955
G1 X121.928 Y103.284 E.01886
G1 X122.265 Y102.787 E.01884
G1 X122.579 Y103.004 F10800
G1 F1200
G1 X122.926 Y102.643 E.01569
G1 X123.354 Y102.326 E.0167
G1 X123.829 Y102.086 E.0167
G1 X124.338 Y101.931 E.0167
G1 X124.837 Y101.867 E.01576
G1 X125.396 Y101.885 E.01753
G1 X125.919 Y101.998 E.01679
G1 X126.414 Y102.196 E.0167
G1 X126.867 Y102.476 E.0167
G1 X127.267 Y102.827 E.0167
G1 X127.601 Y103.242 E.0167
G1 X127.861 Y103.707 E.0167
G1 X128.039 Y104.209 E.0167
G1 X128.129 Y104.734 E.0167
G1 X128.129 Y105.266 E.0167
G1 X128.039 Y105.791 E.0167
G1 X127.861 Y106.293 E.0167
G1 X127.601 Y106.758 E.0167
G1 X127.267 Y107.173 E.0167
G1 X126.867 Y107.524 E.0167
G1 X126.414 Y107.804 E.0167
G1 X125.947 Y107.991 E.01576
G1 X125.402 Y108.114 E.01753
G1 X124.867 Y108.137 E.01679
G1 X124.338 Y108.069 E.0167
G1 X123.829 Y107.914 E.0167
G1 X123.38 Y107.687 E.01576
G1 X122.928 Y107.359 E.01753
G1 X122.557 Y106.973 E.01679
G1 X122.259 Y106.531 E.0167
G1 X122.039 Y106.046 E.0167
G1 X121.905 Y105.531 E.0167
G1 X121.86 Y105 E.0167
G1 X121.903 Y104.499 E.01576
G1 X122.038 Y103.957 E.01753
G1 X122.259 Y103.469 E.01679
G1 X122.541 Y103.051 E.01582
G1 X122.851 Y103.265 F10800
;TYPE:External perimeter
G1 F1200
G1 X123.176 Y102.927 E.01469
G1 X123.552 Y102.649 E.01469
G1 X123.97 Y102.438 E.01469
G1 X124.418 Y102.301 E.01469
G1 X124.855 Y102.245 E.01381
G1 X125.35 Y102.261 E.01552
G1 X125.809 Y102.36 E.01472
G1 X126.243 Y102.534 E.01469
G1 X126.642 Y102.78 E.01469
G1 X126.994 Y103.089 E.01469
G1 X127.288 Y103.454 E.01469
G1 X127.516 Y103.863 E.01469
G1 X127.672 Y104.304 E.01469
G1 X127.752 Y104.766 E.01469
G1 X127.752 Y105.234 E.01469
G1 X127.672 Y105.696 E.01469
G1 X127.516 Y106.137 E.01469
G1 X127.288 Y106.546 E.01469
G1 X126.994 Y106.911 E.01469
G1 X126.642 Y107.22 E.01469
G1 X126.243 Y107.466 E.01469
G1 X125.835 Y107.63 E.01381
G1 X125.352 Y107.739 E.01552
G1 X124.883 Y107.759 E.01472
G1 X124.418 Y107.7 E.01469
G1 X123.97 Y107.562 E.01469
G1 X123.577 Y107.364 E.01381
G1 X123.176 Y107.074 E.01552
G1 X122.851 Y106.735 E.01472
G1 X122.589 Y106.347 E.01469
G1 X122.396 Y105.92 E.01469
G1 X122.278 Y105.467 E.01469
G1 X122.239 Y105 E.01469
G1 X122.276 Y104.561 E.01381
G1 X122.396 Y104.081 E.01552
G1 X122.589 Y103.653 E.01472
G1 X122.818 Y103.315 E.0128
G1 X122.708 Y102.892 F10800
;WIPE_START
G1 F8640
G1 X123.176 Y102.927 E-.12183
G1 X123.552 Y102.649 E-.10815
G1 X123.97 Y102.438 E-.10815
G1 X124.418 Y102.301 E-.10815
G1 X124.855 Y102.245 E-.10168
G1 X125.35 Y102.261 E-.1143
G1 X125.809 Y102.36 E-.10839
G1 X126.243 Y102.534 E-.10815
G1 X126.642 Y102.78 E-.10815
G1 X126.994 Y103.089 E-.10815
G1 X127.288 Y103.454 E-.10815
G1 X127.516 Y103.863 E-.10815
G1 X127.543 Y103.939 E-.0186
;WIPE_END
G1 E-.07 F2100
G1 Z.4 F10800
G1 X126.178 Y96.805
G1 Z.2
G1 E1.4 F2100
;TYPE:Perimeter
G1 F1200
G1 X128.439 Y97.469 E.07389
G1 X130.422 Y98.743 E.07389
G1 X131.965 Y100.524 E.07389
G1 X132.944 Y102.667 E.07389
G1 X133.28 Y105 E.07389
G1 X132.944 Y107.333 E.07389
G1 X131.965 Y109.476 E.07389
G1 X130.422 Y111.257 E.07389
G1 X128.439 Y112.531 E.07389
G1 X126.178 Y113.195 E.07389
G1 X123.822 Y113.195 E.07389
G1 X121.561 Y112.531 E.07389
G1 X119.578 Y111.257 E.07389
G1 X118.035 Y109.476 E.07389
G1 X117.056 Y107.333 E.07389
G1 X116.72 Y105 E.07389
G1 X117.056 Y102.667 E.07389
G1 X118.035 Y100.524 E.07389
G1 X119.578 Y98.743 E.07389
G1 X121.561 Y97.469 E.07389
G1 X123.822 Y96.805 E.07389
G1 X126.118 Y96.805 E.07201
G1 X126.233 Y96.428 F10800
G1 F1200
G1 X128.598 Y97.122 E.07729
G1 X130.672 Y98.455 E.07729
M73 P2 R21
G1 X132.286 Y100.318 E.07729
G1 X133.31 Y102.56 E.07729
G1 X133.661 Y105 E.07729
G1 X133.31 Y107.44 E.07729
G1 X132.286 Y109.682 E.07729
G1 X130.671 Y111.545 E.07729
G1 X128.598 Y112.878 E.07729
G1 X126.233 Y113.572 E.07729
G1 X123.767 Y113.572 E.07729
G1 X121.402 Y112.878 E.07729
G1 X119.328 Y111.545 E.07729
G1 X117.714 Y109.682 E.07729
G1 X116.69 Y107.44 E.07729
G1 X116.339 Y105 E.07729
G1 X116.69 Y102.56 E.07729
G1 X117.714 Y100.318 E.07729
G1 X119.329 Y98.455 E.07729
G1 X121.402 Y97.122 E.07729
G1 X123.767 Y96.428 E.07729
G1 X126.173 Y96.428 E.07541
G1 X126.437 Y96.095 F10800
G1 F1200
G1 X128.606 Y96.731 E.07086
G1 X129.166 Y95.686 E.03718
G1 X129.4 Y95.365 E.01245
G1 X129.31 Y95.752 E.01245
G1 X128.888 Y96.86 E.03718
G1 X130.789 Y98.082 E.07086
G1 X131.622 Y97.237 E.03718
G1 X131.936 Y96.995 E.01245
G1 X131.741 Y97.341 E.01245
G1 X131.024 Y98.285 E.03718
G1 X132.504 Y99.993 E.07086
G1 X133.54 Y99.417 E.03718
G1 X133.91 Y99.274 E.01245
G1 X133.626 Y99.551 E.01245
G1 X132.671 Y100.254 E.03718
G1 X133.61 Y102.31 E.07086
G1 X134.767 Y102.05 E.03718
G1 X135.163 Y102.016 E.01245
G1 X134.812 Y102.202 E.01245
G1 X133.698 Y102.608 E.03718
G1 X134.019 Y104.845 E.07086
G1 X135.203 Y104.921 E.03718
G1 X135.592 Y105 E.01245
G1 X135.203 Y105.079 E.01245
G1 X134.019 Y105.155 E.03718
G1 X133.698 Y107.392 E.07086
G1 X134.812 Y107.798 E.03718
G1 X135.163 Y107.984 E.01245
G1 X134.767 Y107.95 E.01245
G1 X133.61 Y107.69 E.03718
G1 X132.671 Y109.746 E.07086
G1 X133.626 Y110.449 E.03718
G1 X133.91 Y110.726 E.01245
G1 X133.54 Y110.583 E.01245
G1 X132.504 Y110.007 E.03718
G1 X131.024 Y111.715 E.07086
G1 X131.741 Y112.659 E.03718
G1 X131.936 Y113.005 E.01245
G1 X131.622 Y112.763 E.01245
G1 X130.789 Y111.918 E.03718
G1 X128.888 Y113.14 E.07086
G1 X129.31 Y114.248 E.03718
G1 X129.4 Y114.635 E.01245
G1 X129.166 Y114.314 E.01245
G1 X128.606 Y113.269 E.03718
G1 X126.437 Y113.905 E.07086
G1 X126.53 Y115.088 E.03718
G1 X126.507 Y115.484 E.01245
G1 X126.374 Y115.11 E.01245
G1 X126.13 Y113.95 E.03718
G1 X123.87 Y113.95 E.07086
G1 X123.626 Y115.11 E.03718
G1 X123.493 Y115.484 E.01245
G1 X123.47 Y115.088 E.01245
G1 X123.563 Y113.905 E.03718
G1 X121.394 Y113.269 E.07086
G1 X120.834 Y114.314 E.03718
G1 X120.6 Y114.635 E.01245
G1 X120.69 Y114.248 E.01245
G1 X121.112 Y113.14 E.03718
G1 X119.211 Y111.918 E.07086
G1 X118.378 Y112.763 E.03718
G1 X118.064 Y113.005 E.01245
G1 X118.259 Y112.659 E.01245
G1 X118.976 Y111.715 E.03718
G1 X117.496 Y110.007 E.07086
G1 X116.46 Y110.583 E.03718
G1 X116.09 Y110.726 E.01245
G1 X116.374 Y110.449 E.01245
G1 X117.329 Y109.746 E.03718
G1 X116.39 Y107.69 E.07086
G1 X115.233 Y107.95 E.03718
G1 X114.837 Y107.984 E.01245
G1 X115.188 Y107.798 E.01245
G1 X116.302 Y107.392 E.03718
G1 X115.981 Y105.155 E.07086
G1 X114.797 Y105.079 E.03718
G1 X114.408 Y105 E.01245
G1 X114.797 Y104.921 E.01245
G1 X115.981 Y104.845 E.03718
G1 X116.302 Y102.608 E.07086
G1 X115.188 Y102.202 E.03718
G1 X114.837 Y102.016 E.01245
G1 X115.233 Y102.05 E.01245
G1 X116.39 Y102.31 E.03718
G1 X117.329 Y100.254 E.07086
G1 X116.374 Y99.551 E.03718
G1 X116.09 Y99.274 E.01245
G1 X116.46 Y99.417 E.01245
G1 X117.496 Y99.993 E.03718
G1 X118.976 Y98.285 E.07086
G1 X118.259 Y97.341 E.03718
G1 X118.064 Y96.995 E.01245
G1 X118.378 Y97.237 E.01245
G1 X119.211 Y98.082 E.03718
G1 X121.112 Y96.86 E.07086
G1 X120.69 Y95.752 E.03718
G1 X120.6 Y95.365 E.01245
G1 X120.834 Y95.686 E.01245
G1 X121.394 Y96.731 E.03718
G1 X123.563 Y96.095 E.07086
G1 X123.47 Y94.912 E.03718
G1 X123.493 Y94.516 E.01245
G1 X123.626 Y94.89 E.01245
G1 X123.87 Y96.05 E.03718
G1 X126.13 Y96.05 E.07086
G1 X126.374 Y94.89 E.03718
G1 X126.507 Y94.516 E.01245
G1 X126.53 Y94.912 E.01245
G1 X126.442 Y96.035 E.0353
G1 X126.837 Y95.819 F10800
;TYPE:External perimeter
G1 F1200
G1 X128.418 Y96.283 E.05166
G1 X128.846 Y95.485 E.02839
G1 X129.167 Y95.045 E.01708
G1 X129.544 Y94.652 E.01708
G1 X129.797 Y94.453 E.0101
G1 X129.83 Y94.467 E.00112
G1 X129.844 Y94.789 E.0101
G1 X129.795 Y95.332 E.01708
G1 X129.672 Y95.862 E.01708
G1 X129.349 Y96.709 E.02839
G1 X130.042 Y97.154 E.02583
G1 X130.735 Y97.599 E.02583
G1 X131.371 Y96.954 E.02839
G1 X131.803 Y96.622 E.01708
G1 X132.275 Y96.352 E.01708
G1 X132.574 Y96.231 E.0101
G1 X132.601 Y96.255 E.00112
G1 X132.525 Y96.568 E.0101
G1 X132.324 Y97.074 E.01708
